(Exported by FreeCAD)
(Post Processor: grbl_post)
(Output Time:2022-11-06 17:29:05.204400)
(Begin preamble)
G17 G90
G21
(Begin operation: G54)
(Path: G54)
G54
G0 Z5.000
(Finish operation: G54)
(Begin operation: TC: 3_175_endmill)
(Path: TC: 3_175_endmill)
(TC: 3_175_endmill)
(Begin toolchange)
( M6 T10 )
(Finish operation: TC: 3_175_endmill)
(Begin operation: Profile)
(Path: Profile)
(Profile)
(Compensated Tool Path. Diameter: 3.17)
G0 Z5.000
G0 X17.585 Y18.415
G0 Z3.000
G1 X17.585 Y18.415 Z-1.000 F300.000
G1 X7.585 Y18.415 Z-1.000 F600.000
G1 X7.585 Y17.585 Z-1.000 F600.000
G1 X17.585 Y17.585 Z-1.000 F600.000
G1 X17.585 Y18.415 Z-1.000 F600.000
G1 X17.585 Y18.415 Z-2.000 F300.000
G1 X7.585 Y18.415 Z-2.000 F600.000
G1 X7.585 Y17.585 Z-2.000 F600.000
G1 X17.585 Y17.585 Z-2.000 F600.000
G1 X17.585 Y18.415 Z-2.000 F600.000
G1 X17.585 Y18.415 Z-3.000 F300.000
G1 X7.585 Y18.415 Z-3.000 F600.000
G1 X7.585 Y17.585 Z-3.000 F600.000
G1 X17.585 Y17.585 Z-3.000 F600.000
G1 X17.585 Y18.415 Z-3.000 F600.000
G1 X17.585 Y18.415 Z-4.000 F300.000
G1 X7.585 Y18.415 Z-4.000 F600.000
G1 X7.585 Y17.585 Z-4.000 F600.000
G1 X17.585 Y17.585 Z-4.000 F600.000
G1 X17.585 Y18.415 Z-4.000 F600.000
G0 Z5.000
G0 Z5.000
G0 X17.585 Y18.415
G0 X16.436 Y31.412
G0 X16.436 Y31.412 Z3.000
G1 X16.436 Y31.412 Z-1.000 F300.000
G3 X17.626 Y31.586 Z-1.000 I-0.936 J10.588 K0.000 F600.000
G3 X25.914 Y44.126 Z-1.000 I-2.126 J10.414 K0.000 F600.000
G3 X13.374 Y52.414 Z-1.000 I-10.414 J-2.126 K0.000 F600.000
G3 X16.436 Y31.412 Z-1.000 I2.126 J-10.414 K0.000 F600.000
G1 X16.436 Y31.412 Z-2.000 F300.000
G3 X17.626 Y31.586 Z-2.000 I-0.936 J10.588 K0.000 F600.000
G3 X25.914 Y44.126 Z-2.000 I-2.126 J10.414 K0.000 F600.000
G3 X13.374 Y52.414 Z-2.000 I-10.414 J-2.126 K0.000 F600.000
G3 X16.436 Y31.412 Z-2.000 I2.126 J-10.414 K0.000 F600.000
G1 X16.436 Y31.412 Z-3.000 F300.000
G3 X17.626 Y31.586 Z-3.000 I-0.936 J10.588 K0.000 F600.000
G3 X25.914 Y44.126 Z-3.000 I-2.126 J10.414 K0.000 F600.000
G3 X13.374 Y52.414 Z-3.000 I-10.414 J-2.126 K0.000 F600.000
G3 X16.436 Y31.412 Z-3.000 I2.126 J-10.414 K0.000 F600.000
G1 X16.436 Y31.412 Z-4.000 F300.000
G3 X17.626 Y31.586 Z-4.000 I-0.936 J10.588 K0.000 F600.000
G3 X25.914 Y44.126 Z-4.000 I-2.126 J10.414 K0.000 F600.000
G3 X13.374 Y52.414 Z-4.000 I-10.414 J-2.126 K0.000 F600.000
G3 X16.436 Y31.412 Z-4.000 I2.126 J-10.414 K0.000 F600.000
G0 Z5.000
G0 Z5.000
G0 X16.436 Y31.412
G0 Y65.585
G0 Y65.585 Z3.000
G1 X16.436 Y65.585 Z-1.000 F300.000
G1 X17.585 Y65.585 Z-1.000 F600.000
G1 X17.585 Y66.415 Z-1.000 F600.000
G1 X7.585 Y66.415 Z-1.000 F600.000
G1 X7.585 Y65.585 Z-1.000 F600.000
G1 X16.436 Y65.585 Z-1.000 F600.000
G1 X16.436 Y65.585 Z-2.000 F300.000
G1 X17.585 Y65.585 Z-2.000 F600.000
G1 X17.585 Y66.415 Z-2.000 F600.000
G1 X7.585 Y66.415 Z-2.000 F600.000
G1 X7.585 Y65.585 Z-2.000 F600.000
G1 X16.436 Y65.585 Z-2.000 F600.000
G1 X16.436 Y65.585 Z-3.000 F300.000
G1 X17.585 Y65.585 Z-3.000 F600.000
G1 X17.585 Y66.415 Z-3.000 F600.000
G1 X7.585 Y66.415 Z-3.000 F600.000
G1 X7.585 Y65.585 Z-3.000 F600.000
G1 X16.436 Y65.585 Z-3.000 F600.000
G1 X16.436 Y65.585 Z-4.000 F300.000
G1 X17.585 Y65.585 Z-4.000 F600.000
G1 X17.585 Y66.415 Z-4.000 F600.000
G1 X7.585 Y66.415 Z-4.000 F600.000
G1 X7.585 Y65.585 Z-4.000 F600.000
G1 X16.436 Y65.585 Z-4.000 F600.000
G0 Z5.000
G0 Z5.000
G0 X16.436 Y65.585
G0 X56.987 Y62.292
G0 X56.987 Y62.292 Z3.000
G1 X56.987 Y62.292 Z-1.000 F300.000
G3 X61.442 Y58.771 Z-1.000 I3.401 J-0.276 K0.000 F600.000
G3 X63.632 Y63.070 Z-1.000 I-1.054 J3.245 K0.000 F600.000
G3 X59.333 Y65.261 Z-1.000 I-3.245 J-1.054 K0.000 F600.000
G3 X56.987 Y62.292 Z-1.000 I1.054 J-3.245 K0.000 F600.000
G1 X56.987 Y62.292 Z-2.000 F300.000
G3 X61.442 Y58.771 Z-2.000 I3.401 J-0.276 K0.000 F600.000
G3 X63.632 Y63.070 Z-2.000 I-1.054 J3.245 K0.000 F600.000
G3 X59.333 Y65.261 Z-2.000 I-3.245 J-1.054 K0.000 F600.000
G3 X56.987 Y62.292 Z-2.000 I1.054 J-3.245 K0.000 F600.000
G1 X56.987 Y62.292 Z-3.000 F300.000
G3 X61.442 Y58.771 Z-3.000 I3.401 J-0.276 K0.000 F600.000
G3 X63.632 Y63.070 Z-3.000 I-1.054 J3.245 K0.000 F600.000
G3 X59.333 Y65.261 Z-3.000 I-3.245 J-1.054 K0.000 F600.000
G3 X56.987 Y62.292 Z-3.000 I1.054 J-3.245 K0.000 F600.000
G1 X56.987 Y62.292 Z-4.000 F300.000
G3 X61.442 Y58.771 Z-4.000 I3.401 J-0.276 K0.000 F600.000
G3 X63.632 Y63.070 Z-4.000 I-1.054 J3.245 K0.000 F600.000
G3 X59.333 Y65.261 Z-4.000 I-3.245 J-1.054 K0.000 F600.000
G3 X56.987 Y62.292 Z-4.000 I1.054 J-3.245 K0.000 F600.000
G0 Z5.000
G0 Z5.000
G0 X56.987 Y62.292
G0 X59.476 Y52.340
G0 X59.476 Y52.340 Z3.000
G1 X59.476 Y52.340 Z-1.000 F300.000
G3 X59.250 Y52.276 Z-1.000 I0.828 J-3.310 K0.000 F600.000
G3 X57.060 Y47.976 Z-1.000 I1.054 J-3.245 K0.000 F600.000
G3 X61.359 Y45.786 Z-1.000 I3.245 J1.054 K0.000 F600.000
G3 X59.476 Y52.340 Z-1.000 I-1.054 J3.245 K0.000 F600.000
G1 X59.476 Y52.340 Z-2.000 F300.000
G3 X59.250 Y52.276 Z-2.000 I0.828 J-3.310 K0.000 F600.000
G3 X57.060 Y47.976 Z-2.000 I1.054 J-3.245 K0.000 F600.000
G3 X61.359 Y45.786 Z-2.000 I3.245 J1.054 K0.000 F600.000
G3 X59.476 Y52.340 Z-2.000 I-1.054 J3.245 K0.000 F600.000
G1 X59.476 Y52.340 Z-3.000 F300.000
G3 X59.250 Y52.276 Z-3.000 I0.828 J-3.310 K0.000 F600.000
G3 X57.060 Y47.976 Z-3.000 I1.054 J-3.245 K0.000 F600.000
G3 X61.359 Y45.786 Z-3.000 I3.245 J1.054 K0.000 F600.000
G3 X59.476 Y52.340 Z-3.000 I-1.054 J3.245 K0.000 F600.000
G1 X59.476 Y52.340 Z-4.000 F300.000
G3 X59.250 Y52.276 Z-4.000 I0.828 J-3.310 K0.000 F600.000
G3 X57.060 Y47.976 Z-4.000 I1.054 J-3.245 K0.000 F600.000
G3 X61.359 Y45.786 Z-4.000 I3.245 J1.054 K0.000 F600.000
G3 X59.476 Y52.340 Z-4.000 I-1.054 J3.245 K0.000 F600.000
G0 Z5.000
G0 Z5.000
G0 X59.476 Y52.340
G0 X60.066 Y39.454
G0 X60.066 Y39.454 Z3.000
G1 X60.066 Y39.454 Z-1.000 F300.000
G3 X59.167 Y39.290 Z-1.000 I0.156 J-3.408 K0.000 F600.000
G3 X56.977 Y34.991 Z-1.000 I1.054 J-3.245 K0.000 F600.000
G3 X61.276 Y32.801 Z-1.000 I3.245 J1.054 K0.000 F600.000
G3 X60.066 Y39.454 Z-1.000 I-1.054 J3.245 K0.000 F600.000
G1 X60.066 Y39.454 Z-2.000 F300.000
G3 X59.167 Y39.290 Z-2.000 I0.156 J-3.408 K0.000 F600.000
G3 X56.977 Y34.991 Z-2.000 I1.054 J-3.245 K0.000 F600.000
G3 X61.276 Y32.801 Z-2.000 I3.245 J1.054 K0.000 F600.000
G3 X60.066 Y39.454 Z-2.000 I-1.054 J3.245 K0.000 F600.000
G1 X60.066 Y39.454 Z-3.000 F300.000
G3 X59.167 Y39.290 Z-3.000 I0.156 J-3.408 K0.000 F600.000
G3 X56.977 Y34.991 Z-3.000 I1.054 J-3.245 K0.000 F600.000
G3 X61.276 Y32.801 Z-3.000 I3.245 J1.054 K0.000 F600.000
G3 X60.066 Y39.454 Z-3.000 I-1.054 J3.245 K0.000 F600.000
G1 X60.066 Y39.454 Z-4.000 F300.000
G3 X59.167 Y39.290 Z-4.000 I0.156 J-3.408 K0.000 F600.000
G3 X56.977 Y34.991 Z-4.000 I1.054 J-3.245 K0.000 F600.000
G3 X61.276 Y32.801 Z-4.000 I3.245 J1.054 K0.000 F600.000
G3 X60.066 Y39.454 Z-4.000 I-1.054 J3.245 K0.000 F600.000
G0 Z5.000
G0 Z5.000
G0 X60.066 Y39.454
G0 X60.124 Y26.472
G0 X60.124 Y26.472 Z3.000
G1 X60.124 Y26.472 Z-1.000 F300.000
G3 X59.084 Y26.305 Z-1.000 I0.015 J-3.412 K0.000 F600.000
G3 X56.894 Y22.006 Z-1.000 I1.054 J-3.245 K0.000 F600.000
G3 X61.193 Y19.815 Z-1.000 I3.245 J1.054 K0.000 F600.000
G3 X60.124 Y26.472 Z-1.000 I-1.054 J3.245 K0.000 F600.000
G1 X60.124 Y26.472 Z-2.000 F300.000
G3 X59.084 Y26.305 Z-2.000 I0.015 J-3.412 K0.000 F600.000
G3 X56.894 Y22.006 Z-2.000 I1.054 J-3.245 K0.000 F600.000
G3 X61.193 Y19.815 Z-2.000 I3.245 J1.054 K0.000 F600.000
G3 X60.124 Y26.472 Z-2.000 I-1.054 J3.245 K0.000 F600.000
G1 X60.124 Y26.472 Z-3.000 F300.000
G3 X59.084 Y26.305 Z-3.000 I0.015 J-3.412 K0.000 F600.000
G3 X56.894 Y22.006 Z-3.000 I1.054 J-3.245 K0.000 F600.000
G3 X61.193 Y19.815 Z-3.000 I3.245 J1.054 K0.000 F600.000
G3 X60.124 Y26.472 Z-3.000 I-1.054 J3.245 K0.000 F600.000
G1 X60.124 Y26.472 Z-4.000 F300.000
G3 X59.084 Y26.305 Z-4.000 I0.015 J-3.412 K0.000 F600.000
G3 X56.894 Y22.006 Z-4.000 I1.054 J-3.245 K0.000 F600.000
G3 X61.193 Y19.815 Z-4.000 I3.245 J1.054 K0.000 F600.000
G3 X60.124 Y26.472 Z-4.000 I-1.054 J3.245 K0.000 F600.000
G0 Z5.000
G0 Z5.000
G0 X60.124 Y26.472
G0 X60.070 Y13.487
G0 X60.070 Y13.487 Z3.000
G1 X60.070 Y13.487 Z-1.000 F300.000
G3 X59.002 Y13.320 Z-1.000 I-0.014 J-3.412 K0.000 F600.000
G3 X56.811 Y9.021 Z-1.000 I1.054 J-3.245 K0.000 F600.000
G3 X61.110 Y6.830 Z-1.000 I3.245 J1.054 K0.000 F600.000
G3 X60.070 Y13.487 Z-1.000 I-1.054 J3.245 K0.000 F600.000
G1 X60.070 Y13.487 Z-2.000 F300.000
G3 X59.002 Y13.320 Z-2.000 I-0.014 J-3.412 K0.000 F600.000
G3 X56.811 Y9.021 Z-2.000 I1.054 J-3.245 K0.000 F600.000
G3 X61.110 Y6.830 Z-2.000 I3.245 J1.054 K0.000 F600.000
G3 X60.070 Y13.487 Z-2.000 I-1.054 J3.245 K0.000 F600.000
G1 X60.070 Y13.487 Z-3.000 F300.000
G3 X59.002 Y13.320 Z-3.000 I-0.014 J-3.412 K0.000 F600.000
G3 X56.811 Y9.021 Z-3.000 I1.054 J-3.245 K0.000 F600.000
G3 X61.110 Y6.830 Z-3.000 I3.245 J1.054 K0.000 F600.000
G3 X60.070 Y13.487 Z-3.000 I-1.054 J3.245 K0.000 F600.000
G1 X60.070 Y13.487 Z-4.000 F300.000
G3 X59.002 Y13.320 Z-4.000 I-0.014 J-3.412 K0.000 F600.000
G3 X56.811 Y9.021 Z-4.000 I1.054 J-3.245 K0.000 F600.000
G3 X61.110 Y6.830 Z-4.000 I3.245 J1.054 K0.000 F600.000
G3 X60.070 Y13.487 Z-4.000 I-1.054 J3.245 K0.000 F600.000
G0 Z5.000
G0 Z5.000
G0 X60.070 Y13.487
G0 X69.747 Y10.880
G0 X69.747 Y10.880 Z3.000
G1 X69.747 Y10.880 Z-1.000 F300.000
G3 X74.095 Y6.748 Z-1.000 I3.294 J-0.888 K0.000 F600.000
G3 X76.286 Y11.047 Z-1.000 I-1.054 J3.245 K0.000 F600.000
G3 X71.987 Y13.237 Z-1.000 I-3.245 J-1.054 K0.000 F600.000
G3 X69.747 Y10.880 Z-1.000 I1.054 J-3.245 K0.000 F600.000
G1 X69.747 Y10.880 Z-2.000 F300.000
G3 X74.095 Y6.748 Z-2.000 I3.294 J-0.888 K0.000 F600.000
G3 X76.286 Y11.047 Z-2.000 I-1.054 J3.245 K0.000 F600.000
G3 X71.987 Y13.237 Z-2.000 I-3.245 J-1.054 K0.000 F600.000
G3 X69.747 Y10.880 Z-2.000 I1.054 J-3.245 K0.000 F600.000
G1 X69.747 Y10.880 Z-3.000 F300.000
G3 X74.095 Y6.748 Z-3.000 I3.294 J-0.888 K0.000 F600.000
G3 X76.286 Y11.047 Z-3.000 I-1.054 J3.245 K0.000 F600.000
G3 X71.987 Y13.237 Z-3.000 I-3.245 J-1.054 K0.000 F600.000
G3 X69.747 Y10.880 Z-3.000 I1.054 J-3.245 K0.000 F600.000
G1 X69.747 Y10.880 Z-4.000 F300.000
G3 X74.095 Y6.748 Z-4.000 I3.294 J-0.888 K0.000 F600.000
G3 X76.286 Y11.047 Z-4.000 I-1.054 J3.245 K0.000 F600.000
G3 X71.987 Y13.237 Z-4.000 I-3.245 J-1.054 K0.000 F600.000
G3 X69.747 Y10.880 Z-4.000 I1.054 J-3.245 K0.000 F600.000
G0 Z5.000
G0 Z5.000
G0 X69.747 Y10.880
G0 X72.206 Y19.691
G0 X72.206 Y19.691 Z3.000
G1 X72.206 Y19.691 Z-1.000 F300.000
G3 X74.178 Y19.733 Z-1.000 I0.917 J3.286 K0.000 F600.000
G3 X76.369 Y24.032 Z-1.000 I-1.054 J3.245 K0.000 F600.000
G3 X72.070 Y26.222 Z-1.000 I-3.245 J-1.054 K0.000 F600.000
G3 X72.206 Y19.691 Z-1.000 I1.054 J-3.245 K0.000 F600.000
G1 X72.206 Y19.691 Z-2.000 F300.000
G3 X74.178 Y19.733 Z-2.000 I0.917 J3.286 K0.000 F600.000
G3 X76.369 Y24.032 Z-2.000 I-1.054 J3.245 K0.000 F600.000
G3 X72.070 Y26.222 Z-2.000 I-3.245 J-1.054 K0.000 F600.000
G3 X72.206 Y19.691 Z-2.000 I1.054 J-3.245 K0.000 F600.000
G1 X72.206 Y19.691 Z-3.000 F300.000
G3 X74.178 Y19.733 Z-3.000 I0.917 J3.286 K0.000 F600.000
G3 X76.369 Y24.032 Z-3.000 I-1.054 J3.245 K0.000 F600.000
G3 X72.070 Y26.222 Z-3.000 I-3.245 J-1.054 K0.000 F600.000
G3 X72.206 Y19.691 Z-3.000 I1.054 J-3.245 K0.000 F600.000
G1 X72.206 Y19.691 Z-4.000 F300.000
G3 X74.178 Y19.733 Z-4.000 I0.917 J3.286 K0.000 F600.000
G3 X76.369 Y24.032 Z-4.000 I-1.054 J3.245 K0.000 F600.000
G3 X72.070 Y26.222 Z-4.000 I-3.245 J-1.054 K0.000 F600.000
G3 X72.206 Y19.691 Z-4.000 I1.054 J-3.245 K0.000 F600.000
G0 Z5.000
G0 Z5.000
G0 X72.206 Y19.691
G0 X72.997 Y32.557
G0 X72.997 Y32.557 Z3.000
G1 X72.997 Y32.557 Z-1.000 F300.000
G3 X74.261 Y32.718 Z-1.000 I0.209 J3.405 K0.000 F600.000
G3 X76.452 Y37.017 Z-1.000 I-1.054 J3.245 K0.000 F600.000
G3 X72.152 Y39.208 Z-1.000 I-3.245 J-1.054 K0.000 F600.000
G3 X72.997 Y32.557 Z-1.000 I1.054 J-3.245 K0.000 F600.000
G1 X72.997 Y32.557 Z-2.000 F300.000
G3 X74.261 Y32.718 Z-2.000 I0.209 J3.405 K0.000 F600.000
G3 X76.452 Y37.017 Z-2.000 I-1.054 J3.245 K0.000 F600.000
G3 X72.152 Y39.208 Z-2.000 I-3.245 J-1.054 K0.000 F600.000
G3 X72.997 Y32.557 Z-2.000 I1.054 J-3.245 K0.000 F600.000
G1 X72.997 Y32.557 Z-3.000 F300.000
G3 X74.261 Y32.718 Z-3.000 I0.209 J3.405 K0.000 F600.000
G3 X76.452 Y37.017 Z-3.000 I-1.054 J3.245 K0.000 F600.000
G3 X72.152 Y39.208 Z-3.000 I-3.245 J-1.054 K0.000 F600.000
G3 X72.997 Y32.557 Z-3.000 I1.054 J-3.245 K0.000 F600.000
G1 X72.997 Y32.557 Z-4.000 F300.000
G3 X74.261 Y32.718 Z-4.000 I0.209 J3.405 K0.000 F600.000
G3 X76.452 Y37.017 Z-4.000 I-1.054 J3.245 K0.000 F600.000
G3 X72.152 Y39.208 Z-4.000 I-3.245 J-1.054 K0.000 F600.000
G3 X72.997 Y32.557 Z-4.000 I1.054 J-3.245 K0.000 F600.000
G0 Z5.000
G0 Z5.000
G0 X72.997 Y32.557
G0 X73.229 Y45.536
G0 X73.229 Y45.536 Z3.000
G1 X73.229 Y45.536 Z-1.000 F300.000
G3 X74.344 Y45.703 Z-1.000 I0.061 J3.411 K0.000 F600.000
G3 X76.534 Y50.002 Z-1.000 I-1.054 J3.245 K0.000 F600.000
G3 X72.235 Y52.193 Z-1.000 I-3.245 J-1.054 K0.000 F600.000
G3 X73.229 Y45.536 Z-1.000 I1.054 J-3.245 K0.000 F600.000
G1 X73.229 Y45.536 Z-2.000 F300.000
G3 X74.344 Y45.703 Z-2.000 I0.061 J3.411 K0.000 F600.000
G3 X76.534 Y50.002 Z-2.000 I-1.054 J3.245 K0.000 F600.000
G3 X72.235 Y52.193 Z-2.000 I-3.245 J-1.054 K0.000 F600.000
G3 X73.229 Y45.536 Z-2.000 I1.054 J-3.245 K0.000 F600.000
G1 X73.229 Y45.536 Z-3.000 F300.000
G3 X74.344 Y45.703 Z-3.000 I0.061 J3.411 K0.000 F600.000
G3 X76.534 Y50.002 Z-3.000 I-1.054 J3.245 K0.000 F600.000
G3 X72.235 Y52.193 Z-3.000 I-3.245 J-1.054 K0.000 F600.000
G3 X73.229 Y45.536 Z-3.000 I1.054 J-3.245 K0.000 F600.000
G1 X73.229 Y45.536 Z-4.000 F300.000
G3 X74.344 Y45.703 Z-4.000 I0.061 J3.411 K0.000 F600.000
G3 X76.534 Y50.002 Z-4.000 I-1.054 J3.245 K0.000 F600.000
G3 X72.235 Y52.193 Z-4.000 I-3.245 J-1.054 K0.000 F600.000
G3 X73.229 Y45.536 Z-4.000 I1.054 J-3.245 K0.000 F600.000
G0 Z5.000
G0 Z5.000
G0 X73.229 Y45.536
G0 X73.342 Y58.521
G0 X73.342 Y58.521 Z3.000
G1 X73.342 Y58.521 Z-1.000 F300.000
G3 X74.427 Y58.688 Z-1.000 I0.030 J3.412 K0.000 F600.000
G3 X76.617 Y62.987 Z-1.000 I-1.054 J3.245 K0.000 F600.000
G3 X72.318 Y65.178 Z-1.000 I-3.245 J-1.054 K0.000 F600.000
G3 X73.342 Y58.521 Z-1.000 I1.054 J-3.245 K0.000 F600.000
G1 X73.342 Y58.521 Z-2.000 F300.000
G3 X74.427 Y58.688 Z-2.000 I0.030 J3.412 K0.000 F600.000
G3 X76.617 Y62.987 Z-2.000 I-1.054 J3.245 K0.000 F600.000
G3 X72.318 Y65.178 Z-2.000 I-3.245 J-1.054 K0.000 F600.000
G3 X73.342 Y58.521 Z-2.000 I1.054 J-3.245 K0.000 F600.000
G1 X73.342 Y58.521 Z-3.000 F300.000
G3 X74.427 Y58.688 Z-3.000 I0.030 J3.412 K0.000 F600.000
G3 X76.617 Y62.987 Z-3.000 I-1.054 J3.245 K0.000 F600.000
G3 X72.318 Y65.178 Z-3.000 I-3.245 J-1.054 K0.000 F600.000
G3 X73.342 Y58.521 Z-3.000 I1.054 J-3.245 K0.000 F600.000
G1 X73.342 Y58.521 Z-4.000 F300.000
G3 X74.427 Y58.688 Z-4.000 I0.030 J3.412 K0.000 F600.000
G3 X76.617 Y62.987 Z-4.000 I-1.054 J3.245 K0.000 F600.000
G3 X72.318 Y65.178 Z-4.000 I-3.245 J-1.054 K0.000 F600.000
G3 X73.342 Y58.521 Z-4.000 I1.054 J-3.245 K0.000 F600.000
G0 Z5.000
G0 Z5.000
G0 X73.342 Y58.521
G0 X73.432 Y71.506
G0 X73.432 Y71.506 Z3.000
G1 X73.432 Y71.506 Z-1.000 F300.000
G3 X74.510 Y71.673 Z-1.000 I0.023 J3.412 K0.000 F600.000
G3 X76.700 Y75.972 Z-1.000 I-1.054 J3.245 K0.000 F600.000
G3 X72.401 Y78.163 Z-1.000 I-3.245 J-1.054 K0.000 F600.000
G3 X73.432 Y71.506 Z-1.000 I1.054 J-3.245 K0.000 F600.000
G1 X73.432 Y71.506 Z-2.000 F300.000
G3 X74.510 Y71.673 Z-2.000 I0.023 J3.412 K0.000 F600.000
G3 X76.700 Y75.972 Z-2.000 I-1.054 J3.245 K0.000 F600.000
G3 X72.401 Y78.163 Z-2.000 I-3.245 J-1.054 K0.000 F600.000
G3 X73.432 Y71.506 Z-2.000 I1.054 J-3.245 K0.000 F600.000
G1 X73.432 Y71.506 Z-3.000 F300.000
G3 X74.510 Y71.673 Z-3.000 I0.023 J3.412 K0.000 F600.000
G3 X76.700 Y75.972 Z-3.000 I-1.054 J3.245 K0.000 F600.000
G3 X72.401 Y78.163 Z-3.000 I-3.245 J-1.054 K0.000 F600.000
G3 X73.432 Y71.506 Z-3.000 I1.054 J-3.245 K0.000 F600.000
G1 X73.432 Y71.506 Z-4.000 F300.000
G3 X74.510 Y71.673 Z-4.000 I0.023 J3.412 K0.000 F600.000
G3 X76.700 Y75.972 Z-4.000 I-1.054 J3.245 K0.000 F600.000
G3 X72.401 Y78.163 Z-4.000 I-3.245 J-1.054 K0.000 F600.000
G3 X73.432 Y71.506 Z-4.000 I1.054 J-3.245 K0.000 F600.000
G0 Z5.000
G0 Z5.000
G0 X73.432 Y71.506
G0 X63.764 Y74.113
G0 X63.764 Y74.113 Z3.000
G1 X63.764 Y74.113 Z-1.000 F300.000
G3 X59.416 Y78.246 Z-1.000 I-3.294 J0.888 K0.000 F600.000
G3 X57.225 Y73.947 Z-1.000 I1.054 J-3.245 K0.000 F600.000
G3 X61.524 Y71.756 Z-1.000 I3.245 J1.054 K0.000 F600.000
G3 X63.764 Y74.113 Z-1.000 I-1.054 J3.245 K0.000 F600.000
G1 X63.764 Y74.113 Z-2.000 F300.000
G3 X59.416 Y78.246 Z-2.000 I-3.294 J0.888 K0.000 F600.000
G3 X57.225 Y73.947 Z-2.000 I1.054 J-3.245 K0.000 F600.000
G3 X61.524 Y71.756 Z-2.000 I3.245 J1.054 K0.000 F600.000
G3 X63.764 Y74.113 Z-2.000 I-1.054 J3.245 K0.000 F600.000
G1 X63.764 Y74.113 Z-3.000 F300.000
G3 X59.416 Y78.246 Z-3.000 I-3.294 J0.888 K0.000 F600.000
G3 X57.225 Y73.947 Z-3.000 I1.054 J-3.245 K0.000 F600.000
G3 X61.524 Y71.756 Z-3.000 I3.245 J1.054 K0.000 F600.000
G3 X63.764 Y74.113 Z-3.000 I-1.054 J3.245 K0.000 F600.000
G1 X63.764 Y74.113 Z-4.000 F300.000
G3 X59.416 Y78.246 Z-4.000 I-3.294 J0.888 K0.000 F600.000
G3 X57.225 Y73.947 Z-4.000 I1.054 J-3.245 K0.000 F600.000
G3 X61.524 Y71.756 Z-4.000 I3.245 J1.054 K0.000 F600.000
G3 X63.764 Y74.113 Z-4.000 I-1.054 J3.245 K0.000 F600.000
G0 Z5.000
G0 Z5.000
G0 X63.764 Y74.113
G0 X83.030 Y74.727
G0 X83.030 Y74.727 Z3.000
G1 X83.030 Y74.727 Z-1.000 F300.000
G3 X87.495 Y71.590 Z-1.000 I3.410 J0.109 K0.000 F600.000
G3 X89.685 Y75.890 Z-1.000 I-1.054 J3.245 K0.000 F600.000
G3 X85.386 Y78.080 Z-1.000 I-3.245 J-1.054 K0.000 F600.000
G3 X83.030 Y74.727 Z-1.000 I1.054 J-3.245 K0.000 F600.000
G1 X83.030 Y74.727 Z-2.000 F300.000
G3 X87.495 Y71.590 Z-2.000 I3.410 J0.109 K0.000 F600.000
G3 X89.685 Y75.890 Z-2.000 I-1.054 J3.245 K0.000 F600.000
G3 X85.386 Y78.080 Z-2.000 I-3.245 J-1.054 K0.000 F600.000
G3 X83.030 Y74.727 Z-2.000 I1.054 J-3.245 K0.000 F600.000
G1 X83.030 Y74.727 Z-3.000 F300.000
G3 X87.495 Y71.590 Z-3.000 I3.410 J0.109 K0.000 F600.000
G3 X89.685 Y75.890 Z-3.000 I-1.054 J3.245 K0.000 F600.000
G3 X85.386 Y78.080 Z-3.000 I-3.245 J-1.054 K0.000 F600.000
G3 X83.030 Y74.727 Z-3.000 I1.054 J-3.245 K0.000 F600.000
G1 X83.030 Y74.727 Z-4.000 F300.000
G3 X87.495 Y71.590 Z-4.000 I3.410 J0.109 K0.000 F600.000
G3 X89.685 Y75.890 Z-4.000 I-1.054 J3.245 K0.000 F600.000
G3 X85.386 Y78.080 Z-4.000 I-3.245 J-1.054 K0.000 F600.000
G3 X83.030 Y74.727 Z-4.000 I1.054 J-3.245 K0.000 F600.000
G0 Z5.000
G0 Z5.000
G0 X83.030 Y74.727
G0 X85.504 Y65.153
G0 X85.504 Y65.153 Z3.000
G1 X85.504 Y65.153 Z-1.000 F300.000
G3 X85.303 Y65.095 Z-1.000 I0.854 J-3.303 K0.000 F600.000
G3 X83.113 Y60.796 Z-1.000 I1.054 J-3.245 K0.000 F600.000
G3 X87.412 Y58.605 Z-1.000 I3.245 J1.054 K0.000 F600.000
G3 X85.504 Y65.153 Z-1.000 I-1.054 J3.245 K0.000 F600.000
G1 X85.504 Y65.153 Z-2.000 F300.000
G3 X85.303 Y65.095 Z-2.000 I0.854 J-3.303 K0.000 F600.000
G3 X83.113 Y60.796 Z-2.000 I1.054 J-3.245 K0.000 F600.000
G3 X87.412 Y58.605 Z-2.000 I3.245 J1.054 K0.000 F600.000
G3 X85.504 Y65.153 Z-2.000 I-1.054 J3.245 K0.000 F600.000
G1 X85.504 Y65.153 Z-3.000 F300.000
G3 X85.303 Y65.095 Z-3.000 I0.854 J-3.303 K0.000 F600.000
G3 X83.113 Y60.796 Z-3.000 I1.054 J-3.245 K0.000 F600.000
G3 X87.412 Y58.605 Z-3.000 I3.245 J1.054 K0.000 F600.000
G3 X85.504 Y65.153 Z-3.000 I-1.054 J3.245 K0.000 F600.000
G1 X85.504 Y65.153 Z-4.000 F300.000
G3 X85.303 Y65.095 Z-4.000 I0.854 J-3.303 K0.000 F600.000
G3 X83.113 Y60.796 Z-4.000 I1.054 J-3.245 K0.000 F600.000
G3 X87.412 Y58.605 Z-4.000 I3.245 J1.054 K0.000 F600.000
G3 X85.504 Y65.153 Z-4.000 I-1.054 J3.245 K0.000 F600.000
G0 Z5.000
G0 Z5.000
G0 X85.504 Y65.153
G0 X86.113 Y52.273
G0 X86.113 Y52.273 Z3.000
G1 X86.113 Y52.273 Z-1.000 F300.000
G3 X85.220 Y52.110 Z-1.000 I0.161 J-3.408 K0.000 F600.000
G3 X83.030 Y47.811 Z-1.000 I1.054 J-3.245 K0.000 F600.000
G3 X87.329 Y45.620 Z-1.000 I3.245 J1.054 K0.000 F600.000
G3 X86.113 Y52.273 Z-1.000 I-1.054 J3.245 K0.000 F600.000
G1 X86.113 Y52.273 Z-2.000 F300.000
G3 X85.220 Y52.110 Z-2.000 I0.161 J-3.408 K0.000 F600.000
G3 X83.030 Y47.811 Z-2.000 I1.054 J-3.245 K0.000 F600.000
G3 X87.329 Y45.620 Z-2.000 I3.245 J1.054 K0.000 F600.000
G3 X86.113 Y52.273 Z-2.000 I-1.054 J3.245 K0.000 F600.000
G1 X86.113 Y52.273 Z-3.000 F300.000
G3 X85.220 Y52.110 Z-3.000 I0.161 J-3.408 K0.000 F600.000
G3 X83.030 Y47.811 Z-3.000 I1.054 J-3.245 K0.000 F600.000
G3 X87.329 Y45.620 Z-3.000 I3.245 J1.054 K0.000 F600.000
G3 X86.113 Y52.273 Z-3.000 I-1.054 J3.245 K0.000 F600.000
G1 X86.113 Y52.273 Z-4.000 F300.000
G3 X85.220 Y52.110 Z-4.000 I0.161 J-3.408 K0.000 F600.000
G3 X83.030 Y47.811 Z-4.000 I1.054 J-3.245 K0.000 F600.000
G3 X87.329 Y45.620 Z-4.000 I3.245 J1.054 K0.000 F600.000
G3 X86.113 Y52.273 Z-4.000 I-1.054 J3.245 K0.000 F600.000
G0 Z5.000
G0 Z5.000
G0 X86.113 Y52.273
G0 X86.176 Y39.292
G0 X86.176 Y39.292 Z3.000
G1 X86.176 Y39.292 Z-1.000 F300.000
G3 X85.138 Y39.125 Z-1.000 I0.016 J-3.412 K0.000 F600.000
G3 X82.947 Y34.826 Z-1.000 I1.054 J-3.245 K0.000 F600.000
G3 X87.246 Y32.635 Z-1.000 I3.245 J1.054 K0.000 F600.000
G3 X86.176 Y39.292 Z-1.000 I-1.054 J3.245 K0.000 F600.000
G1 X86.176 Y39.292 Z-2.000 F300.000
G3 X85.138 Y39.125 Z-2.000 I0.016 J-3.412 K0.000 F600.000
G3 X82.947 Y34.826 Z-2.000 I1.054 J-3.245 K0.000 F600.000
G3 X87.246 Y32.635 Z-2.000 I3.245 J1.054 K0.000 F600.000
G3 X86.176 Y39.292 Z-2.000 I-1.054 J3.245 K0.000 F600.000
G1 X86.176 Y39.292 Z-3.000 F300.000
G3 X85.138 Y39.125 Z-3.000 I0.016 J-3.412 K0.000 F600.000
G3 X82.947 Y34.826 Z-3.000 I1.054 J-3.245 K0.000 F600.000
G3 X87.246 Y32.635 Z-3.000 I3.245 J1.054 K0.000 F600.000
G3 X86.176 Y39.292 Z-3.000 I-1.054 J3.245 K0.000 F600.000
G1 X86.176 Y39.292 Z-4.000 F300.000
G3 X85.138 Y39.125 Z-4.000 I0.016 J-3.412 K0.000 F600.000
G3 X82.947 Y34.826 Z-4.000 I1.054 J-3.245 K0.000 F600.000
G3 X87.246 Y32.635 Z-4.000 I3.245 J1.054 K0.000 F600.000
G3 X86.176 Y39.292 Z-4.000 I-1.054 J3.245 K0.000 F600.000
G0 Z5.000
G0 Z5.000
G0 X86.176 Y39.292
G0 X86.123 Y26.307
G0 X86.123 Y26.307 Z3.000
G1 X86.123 Y26.307 Z-1.000 F300.000
G3 X85.055 Y26.140 Z-1.000 I-0.014 J-3.412 K0.000 F600.000
G3 X82.864 Y21.840 Z-1.000 I1.054 J-3.245 K0.000 F600.000
G3 X87.163 Y19.650 Z-1.000 I3.245 J1.054 K0.000 F600.000
G3 X86.123 Y26.307 Z-1.000 I-1.054 J3.245 K0.000 F600.000
G1 X86.123 Y26.307 Z-2.000 F300.000
G3 X85.055 Y26.140 Z-2.000 I-0.014 J-3.412 K0.000 F600.000
G3 X82.864 Y21.840 Z-2.000 I1.054 J-3.245 K0.000 F600.000
G3 X87.163 Y19.650 Z-2.000 I3.245 J1.054 K0.000 F600.000
G3 X86.123 Y26.307 Z-2.000 I-1.054 J3.245 K0.000 F600.000
G1 X86.123 Y26.307 Z-3.000 F300.000
G3 X85.055 Y26.140 Z-3.000 I-0.014 J-3.412 K0.000 F600.000
G3 X82.864 Y21.840 Z-3.000 I1.054 J-3.245 K0.000 F600.000
G3 X87.163 Y19.650 Z-3.000 I3.245 J1.054 K0.000 F600.000
G3 X86.123 Y26.307 Z-3.000 I-1.054 J3.245 K0.000 F600.000
G1 X86.123 Y26.307 Z-4.000 F300.000
G3 X85.055 Y26.140 Z-4.000 I-0.014 J-3.412 K0.000 F600.000
G3 X82.864 Y21.840 Z-4.000 I1.054 J-3.245 K0.000 F600.000
G3 X87.163 Y19.650 Z-4.000 I3.245 J1.054 K0.000 F600.000
G3 X86.123 Y26.307 Z-4.000 I-1.054 J3.245 K0.000 F600.000
G0 Z5.000
G0 Z5.000
G0 X86.123 Y26.307
G0 X86.046 Y13.321
G0 X86.046 Y13.321 Z3.000
G1 X86.046 Y13.321 Z-1.000 F300.000
G3 X84.972 Y13.154 Z-1.000 I-0.020 J-3.412 K0.000 F600.000
G3 X82.781 Y8.855 Z-1.000 I1.054 J-3.245 K0.000 F600.000
G3 X87.080 Y6.665 Z-1.000 I3.245 J1.054 K0.000 F600.000
G3 X86.046 Y13.321 Z-1.000 I-1.054 J3.245 K0.000 F600.000
G1 X86.046 Y13.321 Z-2.000 F300.000
G3 X84.972 Y13.154 Z-2.000 I-0.020 J-3.412 K0.000 F600.000
G3 X82.781 Y8.855 Z-2.000 I1.054 J-3.245 K0.000 F600.000
G3 X87.080 Y6.665 Z-2.000 I3.245 J1.054 K0.000 F600.000
G3 X86.046 Y13.321 Z-2.000 I-1.054 J3.245 K0.000 F600.000
G1 X86.046 Y13.321 Z-3.000 F300.000
G3 X84.972 Y13.154 Z-3.000 I-0.020 J-3.412 K0.000 F600.000
G3 X82.781 Y8.855 Z-3.000 I1.054 J-3.245 K0.000 F600.000
G3 X87.080 Y6.665 Z-3.000 I3.245 J1.054 K0.000 F600.000
G3 X86.046 Y13.321 Z-3.000 I-1.054 J3.245 K0.000 F600.000
G1 X86.046 Y13.321 Z-4.000 F300.000
G3 X84.972 Y13.154 Z-4.000 I-0.020 J-3.412 K0.000 F600.000
G3 X82.781 Y8.855 Z-4.000 I1.054 J-3.245 K0.000 F600.000
G3 X87.080 Y6.665 Z-4.000 I3.245 J1.054 K0.000 F600.000
G3 X86.046 Y13.321 Z-4.000 I-1.054 J3.245 K0.000 F600.000
G0 Z5.000
G0 Z5.000
G0 X86.046 Y13.321
G0 X95.717 Y10.715
G0 X95.717 Y10.715 Z3.000
G1 X95.717 Y10.715 Z-1.000 F300.000
G3 X100.066 Y6.582 Z-1.000 I3.294 J-0.888 K0.000 F600.000
G3 X102.256 Y10.881 Z-1.000 I-1.054 J3.245 K0.000 F600.000
G3 X97.957 Y13.072 Z-1.000 I-3.245 J-1.054 K0.000 F600.000
G3 X95.717 Y10.715 Z-1.000 I1.054 J-3.245 K0.000 F600.000
G1 X95.717 Y10.715 Z-2.000 F300.000
G3 X100.066 Y6.582 Z-2.000 I3.294 J-0.888 K0.000 F600.000
G3 X102.256 Y10.881 Z-2.000 I-1.054 J3.245 K0.000 F600.000
G3 X97.957 Y13.072 Z-2.000 I-3.245 J-1.054 K0.000 F600.000
G3 X95.717 Y10.715 Z-2.000 I1.054 J-3.245 K0.000 F600.000
G1 X95.717 Y10.715 Z-3.000 F300.000
G3 X100.066 Y6.582 Z-3.000 I3.294 J-0.888 K0.000 F600.000
G3 X102.256 Y10.881 Z-3.000 I-1.054 J3.245 K0.000 F600.000
G3 X97.957 Y13.072 Z-3.000 I-3.245 J-1.054 K0.000 F600.000
G3 X95.717 Y10.715 Z-3.000 I1.054 J-3.245 K0.000 F600.000
G1 X95.717 Y10.715 Z-4.000 F300.000
G3 X100.066 Y6.582 Z-4.000 I3.294 J-0.888 K0.000 F600.000
G3 X102.256 Y10.881 Z-4.000 I-1.054 J3.245 K0.000 F600.000
G3 X97.957 Y13.072 Z-4.000 I-3.245 J-1.054 K0.000 F600.000
G3 X95.717 Y10.715 Z-4.000 I1.054 J-3.245 K0.000 F600.000
G0 Z5.000
G0 Z5.000
G0 X95.717 Y10.715
G0 X98.177 Y19.526
G0 X98.177 Y19.526 Z3.000
G1 X98.177 Y19.526 Z-1.000 F300.000
G3 X100.148 Y19.567 Z-1.000 I0.917 J3.286 K0.000 F600.000
G3 X102.339 Y23.866 Z-1.000 I-1.054 J3.245 K0.000 F600.000
G3 X98.040 Y26.057 Z-1.000 I-3.245 J-1.054 K0.000 F600.000
G3 X98.177 Y19.526 Z-1.000 I1.054 J-3.245 K0.000 F600.000
G1 X98.177 Y19.526 Z-2.000 F300.000
G3 X100.148 Y19.567 Z-2.000 I0.917 J3.286 K0.000 F600.000
G3 X102.339 Y23.866 Z-2.000 I-1.054 J3.245 K0.000 F600.000
G3 X98.040 Y26.057 Z-2.000 I-3.245 J-1.054 K0.000 F600.000
G3 X98.177 Y19.526 Z-2.000 I1.054 J-3.245 K0.000 F600.000
G1 X98.177 Y19.526 Z-3.000 F300.000
G3 X100.148 Y19.567 Z-3.000 I0.917 J3.286 K0.000 F600.000
G3 X102.339 Y23.866 Z-3.000 I-1.054 J3.245 K0.000 F600.000
G3 X98.040 Y26.057 Z-3.000 I-3.245 J-1.054 K0.000 F600.000
G3 X98.177 Y19.526 Z-3.000 I1.054 J-3.245 K0.000 F600.000
G1 X98.177 Y19.526 Z-4.000 F300.000
G3 X100.148 Y19.567 Z-4.000 I0.917 J3.286 K0.000 F600.000
G3 X102.339 Y23.866 Z-4.000 I-1.054 J3.245 K0.000 F600.000
G3 X98.040 Y26.057 Z-4.000 I-3.245 J-1.054 K0.000 F600.000
G3 X98.177 Y19.526 Z-4.000 I1.054 J-3.245 K0.000 F600.000
G0 Z5.000
G0 Z5.000
G0 X98.177 Y19.526
G0 X98.968 Y32.392
G0 X98.968 Y32.392 Z3.000
G1 X98.968 Y32.392 Z-1.000 F300.000
G3 X100.231 Y32.552 Z-1.000 I0.209 J3.405 K0.000 F600.000
G3 X102.422 Y36.851 Z-1.000 I-1.054 J3.245 K0.000 F600.000
G3 X98.123 Y39.042 Z-1.000 I-3.245 J-1.054 K0.000 F600.000
G3 X98.968 Y32.392 Z-1.000 I1.054 J-3.245 K0.000 F600.000
G1 X98.968 Y32.392 Z-2.000 F300.000
G3 X100.231 Y32.552 Z-2.000 I0.209 J3.405 K0.000 F600.000
G3 X102.422 Y36.851 Z-2.000 I-1.054 J3.245 K0.000 F600.000
G3 X98.123 Y39.042 Z-2.000 I-3.245 J-1.054 K0.000 F600.000
G3 X98.968 Y32.392 Z-2.000 I1.054 J-3.245 K0.000 F600.000
G1 X98.968 Y32.392 Z-3.000 F300.000
G3 X100.231 Y32.552 Z-3.000 I0.209 J3.405 K0.000 F600.000
G3 X102.422 Y36.851 Z-3.000 I-1.054 J3.245 K0.000 F600.000
G3 X98.123 Y39.042 Z-3.000 I-3.245 J-1.054 K0.000 F600.000
G3 X98.968 Y32.392 Z-3.000 I1.054 J-3.245 K0.000 F600.000
G1 X98.968 Y32.392 Z-4.000 F300.000
G3 X100.231 Y32.552 Z-4.000 I0.209 J3.405 K0.000 F600.000
G3 X102.422 Y36.851 Z-4.000 I-1.054 J3.245 K0.000 F600.000
G3 X98.123 Y39.042 Z-4.000 I-3.245 J-1.054 K0.000 F600.000
G3 X98.968 Y32.392 Z-4.000 I1.054 J-3.245 K0.000 F600.000
G0 Z5.000
G0 Z5.000
G0 X98.968 Y32.392
G0 X99.199 Y45.371
G0 X99.199 Y45.371 Z3.000
G1 X99.199 Y45.371 Z-1.000 F300.000
G3 X100.314 Y45.537 Z-1.000 I0.061 J3.411 K0.000 F600.000
G3 X102.505 Y49.836 Z-1.000 I-1.054 J3.245 K0.000 F600.000
G3 X98.205 Y52.027 Z-1.000 I-3.245 J-1.054 K0.000 F600.000
G3 X99.199 Y45.371 Z-1.000 I1.054 J-3.245 K0.000 F600.000
G1 X99.199 Y45.371 Z-2.000 F300.000
G3 X100.314 Y45.537 Z-2.000 I0.061 J3.411 K0.000 F600.000
G3 X102.505 Y49.836 Z-2.000 I-1.054 J3.245 K0.000 F600.000
G3 X98.205 Y52.027 Z-2.000 I-3.245 J-1.054 K0.000 F600.000
G3 X99.199 Y45.371 Z-2.000 I1.054 J-3.245 K0.000 F600.000
G1 X99.199 Y45.371 Z-3.000 F300.000
G3 X100.314 Y45.537 Z-3.000 I0.061 J3.411 K0.000 F600.000
G3 X102.505 Y49.836 Z-3.000 I-1.054 J3.245 K0.000 F600.000
G3 X98.205 Y52.027 Z-3.000 I-3.245 J-1.054 K0.000 F600.000
G3 X99.199 Y45.371 Z-3.000 I1.054 J-3.245 K0.000 F600.000
G1 X99.199 Y45.371 Z-4.000 F300.000
G3 X100.314 Y45.537 Z-4.000 I0.061 J3.411 K0.000 F600.000
G3 X102.505 Y49.836 Z-4.000 I-1.054 J3.245 K0.000 F600.000
G3 X98.205 Y52.027 Z-4.000 I-3.245 J-1.054 K0.000 F600.000
G3 X99.199 Y45.371 Z-4.000 I1.054 J-3.245 K0.000 F600.000
G0 Z5.000
G0 Z5.000
G0 X99.199 Y45.371
G0 X99.313 Y58.356
G0 X99.313 Y58.356 Z3.000
G1 X99.313 Y58.356 Z-1.000 F300.000
G3 X100.397 Y58.522 Z-1.000 I0.030 J3.412 K0.000 F600.000
G3 X102.588 Y62.822 Z-1.000 I-1.054 J3.245 K0.000 F600.000
G3 X98.288 Y65.012 Z-1.000 I-3.245 J-1.054 K0.000 F600.000
G3 X99.313 Y58.356 Z-1.000 I1.054 J-3.245 K0.000 F600.000
G1 X99.313 Y58.356 Z-2.000 F300.000
G3 X100.397 Y58.522 Z-2.000 I0.030 J3.412 K0.000 F600.000
G3 X102.588 Y62.822 Z-2.000 I-1.054 J3.245 K0.000 F600.000
G3 X98.288 Y65.012 Z-2.000 I-3.245 J-1.054 K0.000 F600.000
G3 X99.313 Y58.356 Z-2.000 I1.054 J-3.245 K0.000 F600.000
G1 X99.313 Y58.356 Z-3.000 F300.000
G3 X100.397 Y58.522 Z-3.000 I0.030 J3.412 K0.000 F600.000
G3 X102.588 Y62.822 Z-3.000 I-1.054 J3.245 K0.000 F600.000
G3 X98.288 Y65.012 Z-3.000 I-3.245 J-1.054 K0.000 F600.000
G3 X99.313 Y58.356 Z-3.000 I1.054 J-3.245 K0.000 F600.000
G1 X99.313 Y58.356 Z-4.000 F300.000
G3 X100.397 Y58.522 Z-4.000 I0.030 J3.412 K0.000 F600.000
G3 X102.588 Y62.822 Z-4.000 I-1.054 J3.245 K0.000 F600.000
G3 X98.288 Y65.012 Z-4.000 I-3.245 J-1.054 K0.000 F600.000
G3 X99.313 Y58.356 Z-4.000 I1.054 J-3.245 K0.000 F600.000
G0 Z5.000
G0 Z5.000
G0 X99.313 Y58.356
G0 X99.402 Y71.341
G0 X99.402 Y71.341 Z3.000
G1 X99.402 Y71.341 Z-1.000 F300.000
G3 X100.480 Y71.508 Z-1.000 I0.023 J3.412 K0.000 F600.000
G3 X102.670 Y75.807 Z-1.000 I-1.054 J3.245 K0.000 F600.000
G3 X98.371 Y77.997 Z-1.000 I-3.245 J-1.054 K0.000 F600.000
G3 X99.402 Y71.341 Z-1.000 I1.054 J-3.245 K0.000 F600.000
G1 X99.402 Y71.341 Z-2.000 F300.000
G3 X100.480 Y71.508 Z-2.000 I0.023 J3.412 K0.000 F600.000
G3 X102.670 Y75.807 Z-2.000 I-1.054 J3.245 K0.000 F600.000
G3 X98.371 Y77.997 Z-2.000 I-3.245 J-1.054 K0.000 F600.000
G3 X99.402 Y71.341 Z-2.000 I1.054 J-3.245 K0.000 F600.000
G1 X99.402 Y71.341 Z-3.000 F300.000
G3 X100.480 Y71.508 Z-3.000 I0.023 J3.412 K0.000 F600.000
G3 X102.670 Y75.807 Z-3.000 I-1.054 J3.245 K0.000 F600.000
G3 X98.371 Y77.997 Z-3.000 I-3.245 J-1.054 K0.000 F600.000
G3 X99.402 Y71.341 Z-3.000 I1.054 J-3.245 K0.000 F600.000
G1 X99.402 Y71.341 Z-4.000 F300.000
G3 X100.480 Y71.508 Z-4.000 I0.023 J3.412 K0.000 F600.000
G3 X102.670 Y75.807 Z-4.000 I-1.054 J3.245 K0.000 F600.000
G3 X98.371 Y77.997 Z-4.000 I-3.245 J-1.054 K0.000 F600.000
G3 X99.402 Y71.341 Z-4.000 I1.054 J-3.245 K0.000 F600.000
G0 Z5.000
G0 Z5.000
G0 X99.402 Y71.341
G0 X109.105 Y73.824
G0 X109.105 Y73.824 Z3.000
G1 X109.105 Y73.824 Z-1.000 F300.000
G3 X113.465 Y71.425 Z-1.000 I3.305 J0.846 K0.000 F600.000
G3 X115.655 Y75.724 Z-1.000 I-1.054 J3.245 K0.000 F600.000
G3 X111.356 Y77.914 Z-1.000 I-3.245 J-1.054 K0.000 F600.000
G3 X109.105 Y73.824 Z-1.000 I1.054 J-3.245 K0.000 F600.000
G1 X109.105 Y73.824 Z-2.000 F300.000
G3 X113.465 Y71.425 Z-2.000 I3.305 J0.846 K0.000 F600.000
G3 X115.655 Y75.724 Z-2.000 I-1.054 J3.245 K0.000 F600.000
G3 X111.356 Y77.914 Z-2.000 I-3.245 J-1.054 K0.000 F600.000
G3 X109.105 Y73.824 Z-2.000 I1.054 J-3.245 K0.000 F600.000
G1 X109.105 Y73.824 Z-3.000 F300.000
G3 X113.465 Y71.425 Z-3.000 I3.305 J0.846 K0.000 F600.000
G3 X115.655 Y75.724 Z-3.000 I-1.054 J3.245 K0.000 F600.000
G3 X111.356 Y77.914 Z-3.000 I-3.245 J-1.054 K0.000 F600.000
G3 X109.105 Y73.824 Z-3.000 I1.054 J-3.245 K0.000 F600.000
G1 X109.105 Y73.824 Z-4.000 F300.000
G3 X113.465 Y71.425 Z-4.000 I3.305 J0.846 K0.000 F600.000
G3 X115.655 Y75.724 Z-4.000 I-1.054 J3.245 K0.000 F600.000
G3 X111.356 Y77.914 Z-4.000 I-3.245 J-1.054 K0.000 F600.000
G3 X109.105 Y73.824 Z-4.000 I1.054 J-3.245 K0.000 F600.000
G0 Z5.000
G0 Z5.000
G0 X109.105 Y73.824
G0 X111.452 Y64.982
G0 X111.452 Y64.982 Z3.000
G1 X111.452 Y64.982 Z-1.000 F300.000
G3 X111.273 Y64.929 Z-1.000 I0.875 J-3.298 K0.000 F600.000
G3 X109.083 Y60.630 Z-1.000 I1.054 J-3.245 K0.000 F600.000
G3 X113.382 Y58.440 Z-1.000 I3.245 J1.054 K0.000 F600.000
G3 X111.452 Y64.982 Z-1.000 I-1.054 J3.245 K0.000 F600.000
G1 X111.452 Y64.982 Z-2.000 F300.000
G3 X111.273 Y64.929 Z-2.000 I0.875 J-3.298 K0.000 F600.000
G3 X109.083 Y60.630 Z-2.000 I1.054 J-3.245 K0.000 F600.000
G3 X113.382 Y58.440 Z-2.000 I3.245 J1.054 K0.000 F600.000
G3 X111.452 Y64.982 Z-2.000 I-1.054 J3.245 K0.000 F600.000
G1 X111.452 Y64.982 Z-3.000 F300.000
G3 X111.273 Y64.929 Z-3.000 I0.875 J-3.298 K0.000 F600.000
G3 X109.083 Y60.630 Z-3.000 I1.054 J-3.245 K0.000 F600.000
G3 X113.382 Y58.440 Z-3.000 I3.245 J1.054 K0.000 F600.000
G3 X111.452 Y64.982 Z-3.000 I-1.054 J3.245 K0.000 F600.000
G1 X111.452 Y64.982 Z-4.000 F300.000
G3 X111.273 Y64.929 Z-4.000 I0.875 J-3.298 K0.000 F600.000
G3 X109.083 Y60.630 Z-4.000 I1.054 J-3.245 K0.000 F600.000
G3 X113.382 Y58.440 Z-4.000 I3.245 J1.054 K0.000 F600.000
G3 X111.452 Y64.982 Z-4.000 I-1.054 J3.245 K0.000 F600.000
G0 Z5.000
G0 Z5.000
G0 X111.452 Y64.982
G0 X112.079 Y52.107
G0 X112.079 Y52.107 Z3.000
G1 X112.079 Y52.107 Z-1.000 F300.000
G3 X111.191 Y51.944 Z-1.000 I0.166 J-3.408 K0.000 F600.000
G3 X109.000 Y47.645 Z-1.000 I1.054 J-3.245 K0.000 F600.000
G3 X113.299 Y45.454 Z-1.000 I3.245 J1.054 K0.000 F600.000
G3 X112.079 Y52.107 Z-1.000 I-1.054 J3.245 K0.000 F600.000
G1 X112.079 Y52.107 Z-2.000 F300.000
G3 X111.191 Y51.944 Z-2.000 I0.166 J-3.408 K0.000 F600.000
G3 X109.000 Y47.645 Z-2.000 I1.054 J-3.245 K0.000 F600.000
G3 X113.299 Y45.454 Z-2.000 I3.245 J1.054 K0.000 F600.000
G3 X112.079 Y52.107 Z-2.000 I-1.054 J3.245 K0.000 F600.000
G1 X112.079 Y52.107 Z-3.000 F300.000
G3 X111.191 Y51.944 Z-3.000 I0.166 J-3.408 K0.000 F600.000
G3 X109.000 Y47.645 Z-3.000 I1.054 J-3.245 K0.000 F600.000
G3 X113.299 Y45.454 Z-3.000 I3.245 J1.054 K0.000 F600.000
G3 X112.079 Y52.107 Z-3.000 I-1.054 J3.245 K0.000 F600.000
G1 X112.079 Y52.107 Z-4.000 F300.000
G3 X111.191 Y51.944 Z-4.000 I0.166 J-3.408 K0.000 F600.000
G3 X109.000 Y47.645 Z-4.000 I1.054 J-3.245 K0.000 F600.000
G3 X113.299 Y45.454 Z-4.000 I3.245 J1.054 K0.000 F600.000
G3 X112.079 Y52.107 Z-4.000 I-1.054 J3.245 K0.000 F600.000
G0 Z5.000
G0 Z5.000
G0 X112.079 Y52.107
G0 X112.145 Y39.126
G0 X112.145 Y39.126 Z3.000
G1 X112.145 Y39.126 Z-1.000 F300.000
G3 X111.108 Y38.959 Z-1.000 I0.017 J-3.412 K0.000 F600.000
G3 X108.917 Y34.660 Z-1.000 I1.054 J-3.245 K0.000 F600.000
G3 X113.216 Y32.469 Z-1.000 I3.245 J1.054 K0.000 F600.000
G3 X112.145 Y39.126 Z-1.000 I-1.054 J3.245 K0.000 F600.000
G1 X112.145 Y39.126 Z-2.000 F300.000
G3 X111.108 Y38.959 Z-2.000 I0.017 J-3.412 K0.000 F600.000
G3 X108.917 Y34.660 Z-2.000 I1.054 J-3.245 K0.000 F600.000
G3 X113.216 Y32.469 Z-2.000 I3.245 J1.054 K0.000 F600.000
G3 X112.145 Y39.126 Z-2.000 I-1.054 J3.245 K0.000 F600.000
G1 X112.145 Y39.126 Z-3.000 F300.000
G3 X111.108 Y38.959 Z-3.000 I0.017 J-3.412 K0.000 F600.000
G3 X108.917 Y34.660 Z-3.000 I1.054 J-3.245 K0.000 F600.000
G3 X113.216 Y32.469 Z-3.000 I3.245 J1.054 K0.000 F600.000
G3 X112.145 Y39.126 Z-3.000 I-1.054 J3.245 K0.000 F600.000
G1 X112.145 Y39.126 Z-4.000 F300.000
G3 X111.108 Y38.959 Z-4.000 I0.017 J-3.412 K0.000 F600.000
G3 X108.917 Y34.660 Z-4.000 I1.054 J-3.245 K0.000 F600.000
G3 X113.216 Y32.469 Z-4.000 I3.245 J1.054 K0.000 F600.000
G3 X112.145 Y39.126 Z-4.000 I-1.054 J3.245 K0.000 F600.000
G0 Z5.000
G0 Z5.000
G0 X112.145 Y39.126
G0 X112.093 Y26.141
G0 X112.093 Y26.141 Z3.000
G1 X112.093 Y26.141 Z-1.000 F300.000
G3 X111.025 Y25.974 Z-1.000 I-0.014 J-3.412 K0.000 F600.000
G3 X108.834 Y21.675 Z-1.000 I1.054 J-3.245 K0.000 F600.000
G3 X113.134 Y19.484 Z-1.000 I3.245 J1.054 K0.000 F600.000
G3 X112.093 Y26.141 Z-1.000 I-1.054 J3.245 K0.000 F600.000
G1 X112.093 Y26.141 Z-2.000 F300.000
G3 X111.025 Y25.974 Z-2.000 I-0.014 J-3.412 K0.000 F600.000
G3 X108.834 Y21.675 Z-2.000 I1.054 J-3.245 K0.000 F600.000
G3 X113.134 Y19.484 Z-2.000 I3.245 J1.054 K0.000 F600.000
G3 X112.093 Y26.141 Z-2.000 I-1.054 J3.245 K0.000 F600.000
G1 X112.093 Y26.141 Z-3.000 F300.000
G3 X111.025 Y25.974 Z-3.000 I-0.014 J-3.412 K0.000 F600.000
G3 X108.834 Y21.675 Z-3.000 I1.054 J-3.245 K0.000 F600.000
G3 X113.134 Y19.484 Z-3.000 I3.245 J1.054 K0.000 F600.000
G3 X112.093 Y26.141 Z-3.000 I-1.054 J3.245 K0.000 F600.000
G1 X112.093 Y26.141 Z-4.000 F300.000
G3 X111.025 Y25.974 Z-4.000 I-0.014 J-3.412 K0.000 F600.000
G3 X108.834 Y21.675 Z-4.000 I1.054 J-3.245 K0.000 F600.000
G3 X113.134 Y19.484 Z-4.000 I3.245 J1.054 K0.000 F600.000
G3 X112.093 Y26.141 Z-4.000 I-1.054 J3.245 K0.000 F600.000
G0 Z5.000
G0 Z5.000
G0 X112.093 Y26.141
G0 X112.017 Y13.156
G0 X112.017 Y13.156 Z3.000
G1 X112.017 Y13.156 Z-1.000 F300.000
G3 X110.942 Y12.989 Z-1.000 I-0.020 J-3.412 K0.000 F600.000
G3 X108.752 Y8.690 Z-1.000 I1.054 J-3.245 K0.000 F600.000
G3 X113.051 Y6.499 Z-1.000 I3.245 J1.054 K0.000 F600.000
G3 X112.017 Y13.156 Z-1.000 I-1.054 J3.245 K0.000 F600.000
G1 X112.017 Y13.156 Z-2.000 F300.000
G3 X110.942 Y12.989 Z-2.000 I-0.020 J-3.412 K0.000 F600.000
G3 X108.752 Y8.690 Z-2.000 I1.054 J-3.245 K0.000 F600.000
G3 X113.051 Y6.499 Z-2.000 I3.245 J1.054 K0.000 F600.000
G3 X112.017 Y13.156 Z-2.000 I-1.054 J3.245 K0.000 F600.000
G1 X112.017 Y13.156 Z-3.000 F300.000
G3 X110.942 Y12.989 Z-3.000 I-0.020 J-3.412 K0.000 F600.000
G3 X108.752 Y8.690 Z-3.000 I1.054 J-3.245 K0.000 F600.000
G3 X113.051 Y6.499 Z-3.000 I3.245 J1.054 K0.000 F600.000
G3 X112.017 Y13.156 Z-3.000 I-1.054 J3.245 K0.000 F600.000
G1 X112.017 Y13.156 Z-4.000 F300.000
G3 X110.942 Y12.989 Z-4.000 I-0.020 J-3.412 K0.000 F600.000
G3 X108.752 Y8.690 Z-4.000 I1.054 J-3.245 K0.000 F600.000
G3 X113.051 Y6.499 Z-4.000 I3.245 J1.054 K0.000 F600.000
G3 X112.017 Y13.156 Z-4.000 I-1.054 J3.245 K0.000 F600.000
G0 Z5.000
G0 Z5.000
G0 X112.017 Y13.156
G0 X121.687 Y10.549
G0 X121.687 Y10.549 Z3.000
G1 X121.687 Y10.549 Z-1.000 F300.000
G3 X126.036 Y6.416 Z-1.000 I3.294 J-0.888 K0.000 F600.000
G3 X128.226 Y10.715 Z-1.000 I-1.054 J3.245 K0.000 F600.000
G3 X123.927 Y12.906 Z-1.000 I-3.245 J-1.054 K0.000 F600.000
G3 X121.687 Y10.549 Z-1.000 I1.054 J-3.245 K0.000 F600.000
G1 X121.687 Y10.549 Z-2.000 F300.000
G3 X126.036 Y6.416 Z-2.000 I3.294 J-0.888 K0.000 F600.000
G3 X128.226 Y10.715 Z-2.000 I-1.054 J3.245 K0.000 F600.000
G3 X123.927 Y12.906 Z-2.000 I-3.245 J-1.054 K0.000 F600.000
G3 X121.687 Y10.549 Z-2.000 I1.054 J-3.245 K0.000 F600.000
G1 X121.687 Y10.549 Z-3.000 F300.000
G3 X126.036 Y6.416 Z-3.000 I3.294 J-0.888 K0.000 F600.000
G3 X128.226 Y10.715 Z-3.000 I-1.054 J3.245 K0.000 F600.000
G3 X123.927 Y12.906 Z-3.000 I-3.245 J-1.054 K0.000 F600.000
G3 X121.687 Y10.549 Z-3.000 I1.054 J-3.245 K0.000 F600.000
G1 X121.687 Y10.549 Z-4.000 F300.000
G3 X126.036 Y6.416 Z-4.000 I3.294 J-0.888 K0.000 F600.000
G3 X128.226 Y10.715 Z-4.000 I-1.054 J3.245 K0.000 F600.000
G3 X123.927 Y12.906 Z-4.000 I-3.245 J-1.054 K0.000 F600.000
G3 X121.687 Y10.549 Z-4.000 I1.054 J-3.245 K0.000 F600.000
G0 Z5.000
G0 Z5.000
G0 X121.687 Y10.549
G0 X124.147 Y19.360
G0 X124.147 Y19.360 Z3.000
G1 X124.147 Y19.360 Z-1.000 F300.000
G3 X126.119 Y19.401 Z-1.000 I0.917 J3.286 K0.000 F600.000
G3 X128.309 Y23.701 Z-1.000 I-1.054 J3.245 K0.000 F600.000
G3 X124.010 Y25.891 Z-1.000 I-3.245 J-1.054 K0.000 F600.000
G3 X124.147 Y19.360 Z-1.000 I1.054 J-3.245 K0.000 F600.000
G1 X124.147 Y19.360 Z-2.000 F300.000
G3 X126.119 Y19.401 Z-2.000 I0.917 J3.286 K0.000 F600.000
G3 X128.309 Y23.701 Z-2.000 I-1.054 J3.245 K0.000 F600.000
G3 X124.010 Y25.891 Z-2.000 I-3.245 J-1.054 K0.000 F600.000
G3 X124.147 Y19.360 Z-2.000 I1.054 J-3.245 K0.000 F600.000
G1 X124.147 Y19.360 Z-3.000 F300.000
G3 X126.119 Y19.401 Z-3.000 I0.917 J3.286 K0.000 F600.000
G3 X128.309 Y23.701 Z-3.000 I-1.054 J3.245 K0.000 F600.000
G3 X124.010 Y25.891 Z-3.000 I-3.245 J-1.054 K0.000 F600.000
G3 X124.147 Y19.360 Z-3.000 I1.054 J-3.245 K0.000 F600.000
G1 X124.147 Y19.360 Z-4.000 F300.000
G3 X126.119 Y19.401 Z-4.000 I0.917 J3.286 K0.000 F600.000
G3 X128.309 Y23.701 Z-4.000 I-1.054 J3.245 K0.000 F600.000
G3 X124.010 Y25.891 Z-4.000 I-3.245 J-1.054 K0.000 F600.000
G3 X124.147 Y19.360 Z-4.000 I1.054 J-3.245 K0.000 F600.000
G0 Z5.000
G0 Z5.000
G0 X124.147 Y19.360
G0 X124.938 Y32.226
G0 X124.938 Y32.226 Z3.000
G1 X124.938 Y32.226 Z-1.000 F300.000
G3 X126.202 Y32.386 Z-1.000 I0.209 J3.405 K0.000 F600.000
G3 X128.392 Y36.686 Z-1.000 I-1.054 J3.245 K0.000 F600.000
G3 X124.093 Y38.876 Z-1.000 I-3.245 J-1.054 K0.000 F600.000
G3 X124.938 Y32.226 Z-1.000 I1.054 J-3.245 K0.000 F600.000
G1 X124.938 Y32.226 Z-2.000 F300.000
G3 X126.202 Y32.386 Z-2.000 I0.209 J3.405 K0.000 F600.000
G3 X128.392 Y36.686 Z-2.000 I-1.054 J3.245 K0.000 F600.000
G3 X124.093 Y38.876 Z-2.000 I-3.245 J-1.054 K0.000 F600.000
G3 X124.938 Y32.226 Z-2.000 I1.054 J-3.245 K0.000 F600.000
G1 X124.938 Y32.226 Z-3.000 F300.000
G3 X126.202 Y32.386 Z-3.000 I0.209 J3.405 K0.000 F600.000
G3 X128.392 Y36.686 Z-3.000 I-1.054 J3.245 K0.000 F600.000
G3 X124.093 Y38.876 Z-3.000 I-3.245 J-1.054 K0.000 F600.000
G3 X124.938 Y32.226 Z-3.000 I1.054 J-3.245 K0.000 F600.000
G1 X124.938 Y32.226 Z-4.000 F300.000
G3 X126.202 Y32.386 Z-4.000 I0.209 J3.405 K0.000 F600.000
G3 X128.392 Y36.686 Z-4.000 I-1.054 J3.245 K0.000 F600.000
G3 X124.093 Y38.876 Z-4.000 I-3.245 J-1.054 K0.000 F600.000
G3 X124.938 Y32.226 Z-4.000 I1.054 J-3.245 K0.000 F600.000
G0 Z5.000
G0 Z5.000
G0 X124.938 Y32.226
G0 X125.169 Y45.205
G0 X125.169 Y45.205 Z3.000
G1 X125.169 Y45.205 Z-1.000 F300.000
G3 X126.284 Y45.372 Z-1.000 I0.061 J3.411 K0.000 F600.000
G3 X128.475 Y49.671 Z-1.000 I-1.054 J3.245 K0.000 F600.000
G3 X124.176 Y51.861 Z-1.000 I-3.245 J-1.054 K0.000 F600.000
G3 X125.169 Y45.205 Z-1.000 I1.054 J-3.245 K0.000 F600.000
G1 X125.169 Y45.205 Z-2.000 F300.000
G3 X126.284 Y45.372 Z-2.000 I0.061 J3.411 K0.000 F600.000
G3 X128.475 Y49.671 Z-2.000 I-1.054 J3.245 K0.000 F600.000
G3 X124.176 Y51.861 Z-2.000 I-3.245 J-1.054 K0.000 F600.000
G3 X125.169 Y45.205 Z-2.000 I1.054 J-3.245 K0.000 F600.000
G1 X125.169 Y45.205 Z-3.000 F300.000
G3 X126.284 Y45.372 Z-3.000 I0.061 J3.411 K0.000 F600.000
G3 X128.475 Y49.671 Z-3.000 I-1.054 J3.245 K0.000 F600.000
G3 X124.176 Y51.861 Z-3.000 I-3.245 J-1.054 K0.000 F600.000
G3 X125.169 Y45.205 Z-3.000 I1.054 J-3.245 K0.000 F600.000
G1 X125.169 Y45.205 Z-4.000 F300.000
G3 X126.284 Y45.372 Z-4.000 I0.061 J3.411 K0.000 F600.000
G3 X128.475 Y49.671 Z-4.000 I-1.054 J3.245 K0.000 F600.000
G3 X124.176 Y51.861 Z-4.000 I-3.245 J-1.054 K0.000 F600.000
G3 X125.169 Y45.205 Z-4.000 I1.054 J-3.245 K0.000 F600.000
G0 Z5.000
G0 Z5.000
G0 X125.169 Y45.205
G0 X125.283 Y58.190
G0 X125.283 Y58.190 Z3.000
G1 X125.283 Y58.190 Z-1.000 F300.000
G3 X126.367 Y58.357 Z-1.000 I0.030 J3.412 K0.000 F600.000
G3 X128.558 Y62.656 Z-1.000 I-1.054 J3.245 K0.000 F600.000
G3 X124.259 Y64.846 Z-1.000 I-3.245 J-1.054 K0.000 F600.000
G3 X125.283 Y58.190 Z-1.000 I1.054 J-3.245 K0.000 F600.000
G1 X125.283 Y58.190 Z-2.000 F300.000
G3 X126.367 Y58.357 Z-2.000 I0.030 J3.412 K0.000 F600.000
G3 X128.558 Y62.656 Z-2.000 I-1.054 J3.245 K0.000 F600.000
G3 X124.259 Y64.846 Z-2.000 I-3.245 J-1.054 K0.000 F600.000
G3 X125.283 Y58.190 Z-2.000 I1.054 J-3.245 K0.000 F600.000
G1 X125.283 Y58.190 Z-3.000 F300.000
G3 X126.367 Y58.357 Z-3.000 I0.030 J3.412 K0.000 F600.000
G3 X128.558 Y62.656 Z-3.000 I-1.054 J3.245 K0.000 F600.000
G3 X124.259 Y64.846 Z-3.000 I-3.245 J-1.054 K0.000 F600.000
G3 X125.283 Y58.190 Z-3.000 I1.054 J-3.245 K0.000 F600.000
G1 X125.283 Y58.190 Z-4.000 F300.000
G3 X126.367 Y58.357 Z-4.000 I0.030 J3.412 K0.000 F600.000
G3 X128.558 Y62.656 Z-4.000 I-1.054 J3.245 K0.000 F600.000
G3 X124.259 Y64.846 Z-4.000 I-3.245 J-1.054 K0.000 F600.000
G3 X125.283 Y58.190 Z-4.000 I1.054 J-3.245 K0.000 F600.000
G0 Z5.000
G0 Z5.000
G0 X125.283 Y58.190
G0 X125.372 Y71.175
G0 X125.372 Y71.175 Z3.000
G1 X125.372 Y71.175 Z-1.000 F300.000
G3 X126.450 Y71.342 Z-1.000 I0.023 J3.412 K0.000 F600.000
G3 X128.641 Y75.641 Z-1.000 I-1.054 J3.245 K0.000 F600.000
G3 X124.341 Y77.832 Z-1.000 I-3.245 J-1.054 K0.000 F600.000
G3 X125.372 Y71.175 Z-1.000 I1.054 J-3.245 K0.000 F600.000
G1 X125.372 Y71.175 Z-2.000 F300.000
G3 X126.450 Y71.342 Z-2.000 I0.023 J3.412 K0.000 F600.000
G3 X128.641 Y75.641 Z-2.000 I-1.054 J3.245 K0.000 F600.000
G3 X124.341 Y77.832 Z-2.000 I-3.245 J-1.054 K0.000 F600.000
G3 X125.372 Y71.175 Z-2.000 I1.054 J-3.245 K0.000 F600.000
G1 X125.372 Y71.175 Z-3.000 F300.000
G3 X126.450 Y71.342 Z-3.000 I0.023 J3.412 K0.000 F600.000
G3 X128.641 Y75.641 Z-3.000 I-1.054 J3.245 K0.000 F600.000
G3 X124.341 Y77.832 Z-3.000 I-3.245 J-1.054 K0.000 F600.000
G3 X125.372 Y71.175 Z-3.000 I1.054 J-3.245 K0.000 F600.000
G1 X125.372 Y71.175 Z-4.000 F300.000
G3 X126.450 Y71.342 Z-4.000 I0.023 J3.412 K0.000 F600.000
G3 X128.641 Y75.641 Z-4.000 I-1.054 J3.245 K0.000 F600.000
G3 X124.341 Y77.832 Z-4.000 I-3.245 J-1.054 K0.000 F600.000
G3 X125.372 Y71.175 Z-4.000 I1.054 J-3.245 K0.000 F600.000
G0 Z5.000
G0 Z5.000
G0 X125.372 Y71.175
G0 X135.076 Y73.658
G0 X135.076 Y73.658 Z3.000
G1 X135.076 Y73.658 Z-1.000 F300.000
G3 X139.435 Y71.259 Z-1.000 I3.305 J0.846 K0.000 F600.000
G3 X141.626 Y75.558 Z-1.000 I-1.054 J3.245 K0.000 F600.000
G3 X137.327 Y77.749 Z-1.000 I-3.245 J-1.054 K0.000 F600.000
G3 X135.076 Y73.658 Z-1.000 I1.054 J-3.245 K0.000 F600.000
G1 X135.076 Y73.658 Z-2.000 F300.000
G3 X139.435 Y71.259 Z-2.000 I3.305 J0.846 K0.000 F600.000
G3 X141.626 Y75.558 Z-2.000 I-1.054 J3.245 K0.000 F600.000
G3 X137.327 Y77.749 Z-2.000 I-3.245 J-1.054 K0.000 F600.000
G3 X135.076 Y73.658 Z-2.000 I1.054 J-3.245 K0.000 F600.000
G1 X135.076 Y73.658 Z-3.000 F300.000
G3 X139.435 Y71.259 Z-3.000 I3.305 J0.846 K0.000 F600.000
G3 X141.626 Y75.558 Z-3.000 I-1.054 J3.245 K0.000 F600.000
G3 X137.327 Y77.749 Z-3.000 I-3.245 J-1.054 K0.000 F600.000
G3 X135.076 Y73.658 Z-3.000 I1.054 J-3.245 K0.000 F600.000
G1 X135.076 Y73.658 Z-4.000 F300.000
G3 X139.435 Y71.259 Z-4.000 I3.305 J0.846 K0.000 F600.000
G3 X141.626 Y75.558 Z-4.000 I-1.054 J3.245 K0.000 F600.000
G3 X137.327 Y77.749 Z-4.000 I-3.245 J-1.054 K0.000 F600.000
G3 X135.076 Y73.658 Z-4.000 I1.054 J-3.245 K0.000 F600.000
G0 Z5.000
G0 Z5.000
G0 X135.076 Y73.658
G0 X137.423 Y64.816
G0 X137.423 Y64.816 Z3.000
G1 X137.423 Y64.816 Z-1.000 F300.000
G3 X137.244 Y64.764 Z-1.000 I0.875 J-3.298 K0.000 F600.000
G3 X135.053 Y60.464 Z-1.000 I1.054 J-3.245 K0.000 F600.000
G3 X139.352 Y58.274 Z-1.000 I3.245 J1.054 K0.000 F600.000
G3 X137.423 Y64.816 Z-1.000 I-1.054 J3.245 K0.000 F600.000
G1 X137.423 Y64.816 Z-2.000 F300.000
G3 X137.244 Y64.764 Z-2.000 I0.875 J-3.298 K0.000 F600.000
G3 X135.053 Y60.464 Z-2.000 I1.054 J-3.245 K0.000 F600.000
G3 X139.352 Y58.274 Z-2.000 I3.245 J1.054 K0.000 F600.000
G3 X137.423 Y64.816 Z-2.000 I-1.054 J3.245 K0.000 F600.000
G1 X137.423 Y64.816 Z-3.000 F300.000
G3 X137.244 Y64.764 Z-3.000 I0.875 J-3.298 K0.000 F600.000
G3 X135.053 Y60.464 Z-3.000 I1.054 J-3.245 K0.000 F600.000
G3 X139.352 Y58.274 Z-3.000 I3.245 J1.054 K0.000 F600.000
G3 X137.423 Y64.816 Z-3.000 I-1.054 J3.245 K0.000 F600.000
G1 X137.423 Y64.816 Z-4.000 F300.000
G3 X137.244 Y64.764 Z-4.000 I0.875 J-3.298 K0.000 F600.000
G3 X135.053 Y60.464 Z-4.000 I1.054 J-3.245 K0.000 F600.000
G3 X139.352 Y58.274 Z-4.000 I3.245 J1.054 K0.000 F600.000
G3 X137.423 Y64.816 Z-4.000 I-1.054 J3.245 K0.000 F600.000
G0 Z5.000
G0 Z5.000
G0 X137.423 Y64.816
G0 X138.049 Y51.941
G0 X138.049 Y51.941 Z3.000
G1 X138.049 Y51.941 Z-1.000 F300.000
G3 X137.161 Y51.779 Z-1.000 I0.166 J-3.408 K0.000 F600.000
G3 X134.970 Y47.479 Z-1.000 I1.054 J-3.245 K0.000 F600.000
G3 X139.270 Y45.289 Z-1.000 I3.245 J1.054 K0.000 F600.000
G3 X138.049 Y51.941 Z-1.000 I-1.054 J3.245 K0.000 F600.000
G1 X138.049 Y51.941 Z-2.000 F300.000
G3 X137.161 Y51.779 Z-2.000 I0.166 J-3.408 K0.000 F600.000
G3 X134.970 Y47.479 Z-2.000 I1.054 J-3.245 K0.000 F600.000
G3 X139.270 Y45.289 Z-2.000 I3.245 J1.054 K0.000 F600.000
G3 X138.049 Y51.941 Z-2.000 I-1.054 J3.245 K0.000 F600.000
G1 X138.049 Y51.941 Z-3.000 F300.000
G3 X137.161 Y51.779 Z-3.000 I0.166 J-3.408 K0.000 F600.000
G3 X134.970 Y47.479 Z-3.000 I1.054 J-3.245 K0.000 F600.000
G3 X139.270 Y45.289 Z-3.000 I3.245 J1.054 K0.000 F600.000
G3 X138.049 Y51.941 Z-3.000 I-1.054 J3.245 K0.000 F600.000
G1 X138.049 Y51.941 Z-4.000 F300.000
G3 X137.161 Y51.779 Z-4.000 I0.166 J-3.408 K0.000 F600.000
G3 X134.970 Y47.479 Z-4.000 I1.054 J-3.245 K0.000 F600.000
G3 X139.270 Y45.289 Z-4.000 I3.245 J1.054 K0.000 F600.000
G3 X138.049 Y51.941 Z-4.000 I-1.054 J3.245 K0.000 F600.000
G0 Z5.000
G0 Z5.000
G0 X138.049 Y51.941
G0 X138.115 Y38.960
G0 X138.115 Y38.960 Z3.000
G1 X138.115 Y38.960 Z-1.000 F300.000
G3 X137.078 Y38.793 Z-1.000 I0.017 J-3.412 K0.000 F600.000
G3 X134.887 Y34.494 Z-1.000 I1.054 J-3.245 K0.000 F600.000
G3 X139.187 Y32.304 Z-1.000 I3.245 J1.054 K0.000 F600.000
G3 X138.115 Y38.960 Z-1.000 I-1.054 J3.245 K0.000 F600.000
G1 X138.115 Y38.960 Z-2.000 F300.000
G3 X137.078 Y38.793 Z-2.000 I0.017 J-3.412 K0.000 F600.000
G3 X134.887 Y34.494 Z-2.000 I1.054 J-3.245 K0.000 F600.000
G3 X139.187 Y32.304 Z-2.000 I3.245 J1.054 K0.000 F600.000
G3 X138.115 Y38.960 Z-2.000 I-1.054 J3.245 K0.000 F600.000
G1 X138.115 Y38.960 Z-3.000 F300.000
G3 X137.078 Y38.793 Z-3.000 I0.017 J-3.412 K0.000 F600.000
G3 X134.887 Y34.494 Z-3.000 I1.054 J-3.245 K0.000 F600.000
G3 X139.187 Y32.304 Z-3.000 I3.245 J1.054 K0.000 F600.000
G3 X138.115 Y38.960 Z-3.000 I-1.054 J3.245 K0.000 F600.000
G1 X138.115 Y38.960 Z-4.000 F300.000
G3 X137.078 Y38.793 Z-4.000 I0.017 J-3.412 K0.000 F600.000
G3 X134.887 Y34.494 Z-4.000 I1.054 J-3.245 K0.000 F600.000
G3 X139.187 Y32.304 Z-4.000 I3.245 J1.054 K0.000 F600.000
G3 X138.115 Y38.960 Z-4.000 I-1.054 J3.245 K0.000 F600.000
G0 Z5.000
G0 Z5.000
G0 X138.115 Y38.960
G0 X138.063 Y25.975
G0 X138.063 Y25.975 Z3.000
G1 X138.063 Y25.975 Z-1.000 F300.000
G3 X136.995 Y25.808 Z-1.000 I-0.014 J-3.412 K0.000 F600.000
G3 X134.805 Y21.509 Z-1.000 I1.054 J-3.245 K0.000 F600.000
G3 X139.104 Y19.318 Z-1.000 I3.245 J1.054 K0.000 F600.000
G3 X138.063 Y25.975 Z-1.000 I-1.054 J3.245 K0.000 F600.000
G1 X138.063 Y25.975 Z-2.000 F300.000
G3 X136.995 Y25.808 Z-2.000 I-0.014 J-3.412 K0.000 F600.000
G3 X134.805 Y21.509 Z-2.000 I1.054 J-3.245 K0.000 F600.000
G3 X139.104 Y19.318 Z-2.000 I3.245 J1.054 K0.000 F600.000
G3 X138.063 Y25.975 Z-2.000 I-1.054 J3.245 K0.000 F600.000
G1 X138.063 Y25.975 Z-3.000 F300.000
G3 X136.995 Y25.808 Z-3.000 I-0.014 J-3.412 K0.000 F600.000
G3 X134.805 Y21.509 Z-3.000 I1.054 J-3.245 K0.000 F600.000
G3 X139.104 Y19.318 Z-3.000 I3.245 J1.054 K0.000 F600.000
G3 X138.063 Y25.975 Z-3.000 I-1.054 J3.245 K0.000 F600.000
G1 X138.063 Y25.975 Z-4.000 F300.000
G3 X136.995 Y25.808 Z-4.000 I-0.014 J-3.412 K0.000 F600.000
G3 X134.805 Y21.509 Z-4.000 I1.054 J-3.245 K0.000 F600.000
G3 X139.104 Y19.318 Z-4.000 I3.245 J1.054 K0.000 F600.000
G3 X138.063 Y25.975 Z-4.000 I-1.054 J3.245 K0.000 F600.000
G0 Z5.000
G0 Z5.000
G0 X138.063 Y25.975
G0 X137.987 Y12.990
G0 X137.987 Y12.990 Z3.000
G1 X137.987 Y12.990 Z-1.000 F300.000
G3 X136.912 Y12.823 Z-1.000 I-0.020 J-3.412 K0.000 F600.000
G3 X134.722 Y8.524 Z-1.000 I1.054 J-3.245 K0.000 F600.000
G3 X139.021 Y6.333 Z-1.000 I3.245 J1.054 K0.000 F600.000
G3 X137.987 Y12.990 Z-1.000 I-1.054 J3.245 K0.000 F600.000
G1 X137.987 Y12.990 Z-2.000 F300.000
G3 X136.912 Y12.823 Z-2.000 I-0.020 J-3.412 K0.000 F600.000
G3 X134.722 Y8.524 Z-2.000 I1.054 J-3.245 K0.000 F600.000
G3 X139.021 Y6.333 Z-2.000 I3.245 J1.054 K0.000 F600.000
G3 X137.987 Y12.990 Z-2.000 I-1.054 J3.245 K0.000 F600.000
G1 X137.987 Y12.990 Z-3.000 F300.000
G3 X136.912 Y12.823 Z-3.000 I-0.020 J-3.412 K0.000 F600.000
G3 X134.722 Y8.524 Z-3.000 I1.054 J-3.245 K0.000 F600.000
G3 X139.021 Y6.333 Z-3.000 I3.245 J1.054 K0.000 F600.000
G3 X137.987 Y12.990 Z-3.000 I-1.054 J3.245 K0.000 F600.000
G1 X137.987 Y12.990 Z-4.000 F300.000
G3 X136.912 Y12.823 Z-4.000 I-0.020 J-3.412 K0.000 F600.000
G3 X134.722 Y8.524 Z-4.000 I1.054 J-3.245 K0.000 F600.000
G3 X139.021 Y6.333 Z-4.000 I3.245 J1.054 K0.000 F600.000
G3 X137.987 Y12.990 Z-4.000 I-1.054 J3.245 K0.000 F600.000
G0 Z5.000
G0 Z5.000
G0 X137.987 Y12.990
G0 X172.415 Y17.585
G0 X172.415 Y17.585 Z3.000
G1 X172.415 Y17.585 Z-1.000 F300.000
G1 X182.415 Y17.585 Z-1.000 F600.000
G1 X182.415 Y19.415 Z-1.000 F600.000
G1 X172.415 Y19.415 Z-1.000 F600.000
G1 X172.415 Y17.585 Z-1.000 F600.000
G1 X172.415 Y17.585 Z-2.000 F300.000
G1 X182.415 Y17.585 Z-2.000 F600.000
G1 X182.415 Y19.415 Z-2.000 F600.000
G1 X172.415 Y19.415 Z-2.000 F600.000
G1 X172.415 Y17.585 Z-2.000 F600.000
G1 X172.415 Y17.585 Z-3.000 F300.000
G1 X182.415 Y17.585 Z-3.000 F600.000
G1 X182.415 Y19.415 Z-3.000 F600.000
G1 X172.415 Y19.415 Z-3.000 F600.000
G1 X172.415 Y17.585 Z-3.000 F600.000
G1 X172.415 Y17.585 Z-4.000 F300.000
G1 X182.415 Y17.585 Z-4.000 F600.000
G1 X182.415 Y19.415 Z-4.000 F600.000
G1 X172.415 Y19.415 Z-4.000 F600.000
G1 X172.415 Y17.585 Z-4.000 F600.000
G0 Z5.000
G0 Z5.000
G0 X172.415 Y17.585
G0 Y65.585
G0 Y65.585 Z3.000
G1 X172.415 Y65.585 Z-1.000 F300.000
G1 X182.415 Y65.585 Z-1.000 F600.000
G1 X182.415 Y66.415 Z-1.000 F600.000
G1 X172.415 Y66.415 Z-1.000 F600.000
G1 X172.415 Y65.585 Z-1.000 F600.000
G1 X172.415 Y65.585 Z-2.000 F300.000
G1 X182.415 Y65.585 Z-2.000 F600.000
G1 X182.415 Y66.415 Z-2.000 F600.000
G1 X172.415 Y66.415 Z-2.000 F600.000
G1 X172.415 Y65.585 Z-2.000 F600.000
G1 X172.415 Y65.585 Z-3.000 F300.000
G1 X182.415 Y65.585 Z-3.000 F600.000
G1 X182.415 Y66.415 Z-3.000 F600.000
G1 X172.415 Y66.415 Z-3.000 F600.000
G1 X172.415 Y65.585 Z-3.000 F600.000
G1 X172.415 Y65.585 Z-4.000 F300.000
G1 X182.415 Y65.585 Z-4.000 F600.000
G1 X182.415 Y66.415 Z-4.000 F600.000
G1 X172.415 Y66.415 Z-4.000 F600.000
G1 X172.415 Y65.585 Z-4.000 F600.000
G0 Z5.000
G0 Z5.000
G0 X172.415 Y65.585
G0 X186.584 Y65.585
G0 X186.584 Y65.585 Z3.000
G1 X186.584 Y65.585 Z-1.000 F300.000
G1 X186.585 Y12.000 Z-1.000 F600.000
G2 X173.062 Y-1.584 Z-1.000 I-13.586 J0.002 K0.000 F600.000
G1 X12.000 Y-1.585 Z-1.000 F600.000
G2 X-1.584 Y11.938 Z-1.000 I0.002 J13.586 K0.000 F600.000
G1 X-1.585 Y72.000 Z-1.000 F600.000
G2 X11.938 Y85.584 Z-1.000 I13.586 J-0.002 K0.000 F600.000
G1 X173.000 Y85.585 Z-1.000 F600.000
G2 X186.584 Y72.062 Z-1.000 I-0.002 J-13.586 K0.000 F600.000
G1 X186.584 Y65.585 Z-1.000 F600.000
G1 X186.584 Y65.585 Z-2.000 F300.000
G1 X186.585 Y12.000 Z-2.000 F600.000
G2 X173.062 Y-1.584 Z-2.000 I-13.586 J0.002 K0.000 F600.000
G1 X12.000 Y-1.585 Z-2.000 F600.000
G2 X-1.584 Y11.938 Z-2.000 I0.002 J13.586 K0.000 F600.000
G1 X-1.585 Y72.000 Z-2.000 F600.000
G2 X11.938 Y85.584 Z-2.000 I13.586 J-0.002 K0.000 F600.000
G1 X173.000 Y85.585 Z-2.000 F600.000
G2 X186.584 Y72.062 Z-2.000 I-0.002 J-13.586 K0.000 F600.000
G1 X186.584 Y65.585 Z-2.000 F600.000
G1 X186.584 Y65.585 Z-3.000 F300.000
G1 X186.585 Y12.000 Z-3.000 F600.000
G2 X173.062 Y-1.584 Z-3.000 I-13.586 J0.002 K0.000 F600.000
G1 X12.000 Y-1.585 Z-3.000 F600.000
G2 X-1.584 Y11.938 Z-3.000 I0.002 J13.586 K0.000 F600.000
G1 X-1.585 Y72.000 Z-3.000 F600.000
G2 X11.938 Y85.584 Z-3.000 I13.586 J-0.002 K0.000 F600.000
G1 X173.000 Y85.585 Z-3.000 F600.000
G2 X186.584 Y72.062 Z-3.000 I-0.002 J-13.586 K0.000 F600.000
G1 X186.584 Y65.585 Z-3.000 F600.000
G1 X186.584 Y65.585 Z-4.000 F300.000
G1 X186.585 Y12.000 Z-4.000 F600.000
G2 X173.062 Y-1.584 Z-4.000 I-13.586 J0.002 K0.000 F600.000
G1 X12.000 Y-1.585 Z-4.000 F600.000
G2 X-1.584 Y11.938 Z-4.000 I0.002 J13.586 K0.000 F600.000
G1 X-1.585 Y72.000 Z-4.000 F600.000
G2 X11.938 Y85.584 Z-4.000 I13.586 J-0.002 K0.000 F600.000
G1 X173.000 Y85.585 Z-4.000 F600.000
G2 X186.584 Y72.062 Z-4.000 I-0.002 J-13.586 K0.000 F600.000
G1 X186.584 Y65.585 Z-4.000 F600.000
G0 Z5.000
G0 Z5.000
(Finish operation: Profile)
(Begin postamble)
M5
G17 G90
M2
