(Exported by FreeCAD)
(Post Processor: grbl_post)
(Output Time:2022-11-05 15:03:45.262511)
(Begin preamble)
G17 G90
G21
(Begin operation: G54)
(Path: G54)
G54
G0 Z5.000
(Finish operation: G54)
(Begin operation: 3_175_endmill002)
(Path: 3_175_endmill002)
(3_175_endmill002)
(Begin toolchange)
( M6 T2 )
(Finish operation: 3_175_endmill002)
(Begin operation: Profile001)
(Path: Profile001)
(Profile001)
(Compensated Tool Path. Diameter: 3.17)
G0 Z5.000
G0 X137.651 Y80.653
G0 Z3.000
G1 X137.651 Y80.653 Z-1.000 F600.000
G2 X138.575 Y78.590 Z-1.000 I-2.248 J-2.245 K0.000 F600.000
G1 X138.585 Y3.588 Z-1.000 F600.000
G2 X135.412 Y0.415 Z-1.000 I-3.185 J0.012 K0.000 F600.000
G1 X3.588 Y0.415 Z-1.000 F600.000
G2 X0.415 Y3.588 Z-1.000 I0.012 J3.185 K0.000 F600.000
G1 X0.415 Y78.412 Z-1.000 F600.000
G2 X3.588 Y81.585 Z-1.000 I3.185 J-0.012 K0.000 F600.000
G1 X135.412 Y81.585 Z-1.000 F600.000
G2 X137.651 Y80.653 Z-1.000 I-0.009 J-3.177 K0.000 F600.000
G0 Z5.000
G0 Z5.000
(Finish operation: Profile001)
(Begin operation: Profile002)
(Path: Profile002)
(Profile002)
(Compensated Tool Path. Diameter: 3.17)
G0 Z5.000
G0 X139.507 Y82.508
G0 Z3.000
G1 X139.507 Y82.508 Z-1.000 F600.000
G2 X140.579 Y80.053 Z-1.000 I-2.598 J-2.596 K0.000 F600.000
G1 X140.585 Y2.085 Z-1.000 F600.000
G2 X137.053 Y-1.579 Z-1.000 I-3.673 J0.006 K0.000 F600.000
G1 X2.085 Y-1.585 Z-1.000 F600.000
G2 X-1.579 Y1.947 Z-1.000 I0.006 J3.673 K0.000 F600.000
G1 X-1.585 Y79.915 Z-1.000 F600.000
G2 X1.947 Y83.579 Z-1.000 I3.673 J-0.006 K0.000 F600.000
G1 X136.915 Y83.585 Z-1.000 F600.000
G2 X139.507 Y82.508 Z-1.000 I-0.006 J-3.673 K0.000 F600.000
G1 X139.507 Y82.508 Z-2.000 F600.000
G2 X140.579 Y80.053 Z-2.000 I-2.598 J-2.596 K0.000 F600.000
G1 X140.585 Y2.085 Z-2.000 F600.000
G2 X137.053 Y-1.579 Z-2.000 I-3.673 J0.006 K0.000 F600.000
G1 X2.085 Y-1.585 Z-2.000 F600.000
G2 X-1.579 Y1.947 Z-2.000 I0.006 J3.673 K0.000 F600.000
G1 X-1.585 Y79.915 Z-2.000 F600.000
G2 X1.947 Y83.579 Z-2.000 I3.673 J-0.006 K0.000 F600.000
G1 X136.915 Y83.585 Z-2.000 F600.000
G2 X139.507 Y82.508 Z-2.000 I-0.006 J-3.673 K0.000 F600.000
G1 X139.507 Y82.508 Z-3.000 F600.000
G2 X140.579 Y80.053 Z-3.000 I-2.598 J-2.596 K0.000 F600.000
G1 X140.585 Y2.085 Z-3.000 F600.000
G2 X137.053 Y-1.579 Z-3.000 I-3.673 J0.006 K0.000 F600.000
G1 X2.085 Y-1.585 Z-3.000 F600.000
G2 X-1.579 Y1.947 Z-3.000 I0.006 J3.673 K0.000 F600.000
G1 X-1.585 Y79.915 Z-3.000 F600.000
G2 X1.947 Y83.579 Z-3.000 I3.673 J-0.006 K0.000 F600.000
G1 X136.915 Y83.585 Z-3.000 F600.000
G2 X139.507 Y82.508 Z-3.000 I-0.006 J-3.673 K0.000 F600.000
G1 X139.507 Y82.508 Z-4.000 F600.000
G2 X140.579 Y80.053 Z-4.000 I-2.598 J-2.596 K0.000 F600.000
G1 X140.585 Y2.085 Z-4.000 F600.000
G2 X137.053 Y-1.579 Z-4.000 I-3.673 J0.006 K0.000 F600.000
G1 X2.085 Y-1.585 Z-4.000 F600.000
G2 X-1.579 Y1.947 Z-4.000 I0.006 J3.673 K0.000 F600.000
G1 X-1.585 Y79.915 Z-4.000 F600.000
G2 X1.947 Y83.579 Z-4.000 I3.673 J-0.006 K0.000 F600.000
G1 X136.915 Y83.585 Z-4.000 F600.000
G2 X139.507 Y82.508 Z-4.000 I-0.006 J-3.673 K0.000 F600.000
G0 Z5.000
G0 Z5.000
(Finish operation: Profile002)
(Begin postamble)
M5
G17 G90
M2
