(Exported by FreeCAD)
(Post Processor: grbl_post)
(Output Time:2022-11-05 15:07:03.381387)
(Begin preamble)
G17 G90
G21
(Begin operation: G54)
(Path: G54)
G54
G0 Z5.000
(Finish operation: G54)
(Begin operation: 3_175_endmill005)
(Path: 3_175_endmill005)
(3_175_endmill005)
(Begin toolchange)
( M6 T2 )
(Finish operation: 3_175_endmill005)
(Begin operation: Profile005)
(Path: Profile005)
(Profile005)
(Compensated Tool Path. Diameter: 3.17)
G0 Z5.000
G0 X187.605 Y86.605
G0 Z3.000
G1 X187.605 Y86.605 Z-1.000 F600.000
G2 X191.584 Y77.062 Z-1.000 I-9.607 J-9.606 K0.000 F600.000
G1 X191.585 Y15.000 Z-1.000 F600.000
G2 X178.062 Y1.416 Z-1.000 I-13.586 J0.002 K0.000 F600.000
G1 X15.000 Y1.415 Z-1.000 F600.000
G2 X1.416 Y14.938 Z-1.000 I0.002 J13.586 K0.000 F600.000
G1 X1.415 Y77.000 Z-1.000 F600.000
G2 X14.938 Y90.584 Z-1.000 I13.586 J-0.002 K0.000 F600.000
G1 X178.000 Y90.585 Z-1.000 F600.000
G2 X187.605 Y86.605 Z-1.000 I-0.002 J-13.586 K0.000 F600.000
G0 Z5.000
G0 Z5.000
(Finish operation: Profile005)
(Begin operation: Profile006)
(Path: Profile006)
(Profile006)
(Compensated Tool Path. Diameter: 3.17)
G0 Z5.000
G0 X21.585 Y22.415
G0 Z3.000
G1 X21.585 Y22.415 Z-1.000 F600.000
G1 X11.585 Y22.415 Z-1.000 F600.000
G1 X11.585 Y21.585 Z-1.000 F600.000
G1 X21.585 Y21.585 Z-1.000 F600.000
G1 X21.585 Y22.415 Z-1.000 F600.000
G1 X21.585 Y22.415 Z-2.000 F600.000
G1 X11.585 Y22.415 Z-2.000 F600.000
G1 X11.585 Y21.585 Z-2.000 F600.000
G1 X21.585 Y21.585 Z-2.000 F600.000
G1 X21.585 Y22.415 Z-2.000 F600.000
G1 X21.585 Y22.415 Z-3.000 F600.000
G1 X11.585 Y22.415 Z-3.000 F600.000
G1 X11.585 Y21.585 Z-3.000 F600.000
G1 X21.585 Y21.585 Z-3.000 F600.000
G1 X21.585 Y22.415 Z-3.000 F600.000
G1 X21.585 Y22.415 Z-4.000 F600.000
G1 X11.585 Y22.415 Z-4.000 F600.000
G1 X11.585 Y21.585 Z-4.000 F600.000
G1 X21.585 Y21.585 Z-4.000 F600.000
G1 X21.585 Y22.415 Z-4.000 F600.000
G1 X21.585 Y22.415 Z-5.000 F600.000
G1 X11.585 Y22.415 Z-5.000 F600.000
G1 X11.585 Y21.585 Z-5.000 F600.000
G1 X21.585 Y21.585 Z-5.000 F600.000
G1 X21.585 Y22.415 Z-5.000 F600.000
G1 X21.585 Y22.415 Z-6.000 F600.000
G1 X11.585 Y22.415 Z-6.000 F600.000
G1 X11.585 Y21.585 Z-6.000 F600.000
G1 X21.585 Y21.585 Z-6.000 F600.000
G1 X21.585 Y22.415 Z-6.000 F600.000
G1 X21.585 Y22.415 Z-7.000 F600.000
G1 X11.585 Y22.415 Z-7.000 F600.000
G1 X11.585 Y21.585 Z-7.000 F600.000
G1 X21.585 Y21.585 Z-7.000 F600.000
G1 X21.585 Y22.415 Z-7.000 F600.000
G1 X21.585 Y22.415 Z-8.000 F600.000
G1 X11.585 Y22.415 Z-8.000 F600.000
G1 X11.585 Y21.585 Z-8.000 F600.000
G1 X21.585 Y21.585 Z-8.000 F600.000
G1 X21.585 Y22.415 Z-8.000 F600.000
G0 Z5.000
G0 Z5.000
G0 X21.585 Y22.415
G0 X7.626 Y29.510
G0 X7.626 Y29.510 Z3.000
G1 X7.626 Y29.510 Z-1.000 F600.000
G3 X6.504 Y30.776 Z-1.000 I-0.810 J0.412 K0.000 F600.000
G3 X7.126 Y29.067 Z-1.000 I0.311 J-0.854 K0.000 F600.000
G3 X7.626 Y29.510 Z-1.000 I-0.311 J0.854 K0.000 F600.000
G1 X7.626 Y29.510 Z-2.000 F600.000
G3 X6.504 Y30.776 Z-2.000 I-0.810 J0.412 K0.000 F600.000
G3 X7.126 Y29.067 Z-2.000 I0.311 J-0.854 K0.000 F600.000
G3 X7.626 Y29.510 Z-2.000 I-0.311 J0.854 K0.000 F600.000
G1 X7.626 Y29.510 Z-3.000 F600.000
G3 X6.504 Y30.776 Z-3.000 I-0.810 J0.412 K0.000 F600.000
G3 X7.126 Y29.067 Z-3.000 I0.311 J-0.854 K0.000 F600.000
G3 X7.626 Y29.510 Z-3.000 I-0.311 J0.854 K0.000 F600.000
G1 X7.626 Y29.510 Z-4.000 F600.000
G3 X6.504 Y30.776 Z-4.000 I-0.810 J0.412 K0.000 F600.000
G3 X7.126 Y29.067 Z-4.000 I0.311 J-0.854 K0.000 F600.000
G3 X7.626 Y29.510 Z-4.000 I-0.311 J0.854 K0.000 F600.000
G1 X7.626 Y29.510 Z-5.000 F600.000
G3 X6.504 Y30.776 Z-5.000 I-0.810 J0.412 K0.000 F600.000
G3 X7.126 Y29.067 Z-5.000 I0.311 J-0.854 K0.000 F600.000
G3 X7.626 Y29.510 Z-5.000 I-0.311 J0.854 K0.000 F600.000
G1 X7.626 Y29.510 Z-6.000 F600.000
G3 X6.504 Y30.776 Z-6.000 I-0.810 J0.412 K0.000 F600.000
G3 X7.126 Y29.067 Z-6.000 I0.311 J-0.854 K0.000 F600.000
G3 X7.626 Y29.510 Z-6.000 I-0.311 J0.854 K0.000 F600.000
G1 X7.626 Y29.510 Z-7.000 F600.000
G3 X6.504 Y30.776 Z-7.000 I-0.810 J0.412 K0.000 F600.000
G3 X7.126 Y29.067 Z-7.000 I0.311 J-0.854 K0.000 F600.000
G3 X7.626 Y29.510 Z-7.000 I-0.311 J0.854 K0.000 F600.000
G1 X7.626 Y29.510 Z-8.000 F600.000
G3 X6.504 Y30.776 Z-8.000 I-0.810 J0.412 K0.000 F600.000
G3 X7.126 Y29.067 Z-8.000 I0.311 J-0.854 K0.000 F600.000
G3 X7.626 Y29.510 Z-8.000 I-0.311 J0.854 K0.000 F600.000
G0 Z5.000
G0 Z5.000
G0 X7.626 Y29.510
G0 X12.679 Y36.475
G0 X12.679 Y36.475 Z3.000
G1 X12.679 Y36.475 Z-1.000 F600.000
G3 X20.132 Y34.722 Z-1.000 I5.821 J8.025 K0.000 F600.000
G3 X16.868 Y54.278 Z-1.000 I-1.632 J9.778 K0.000 F600.000
G3 X12.679 Y36.475 Z-1.000 I1.632 J-9.778 K0.000 F600.000
G1 X12.679 Y36.475 Z-2.000 F600.000
G3 X20.132 Y34.722 Z-2.000 I5.821 J8.025 K0.000 F600.000
G3 X16.868 Y54.278 Z-2.000 I-1.632 J9.778 K0.000 F600.000
G3 X12.679 Y36.475 Z-2.000 I1.632 J-9.778 K0.000 F600.000
G1 X12.679 Y36.475 Z-3.000 F600.000
G3 X20.132 Y34.722 Z-3.000 I5.821 J8.025 K0.000 F600.000
G3 X16.868 Y54.278 Z-3.000 I-1.632 J9.778 K0.000 F600.000
G3 X12.679 Y36.475 Z-3.000 I1.632 J-9.778 K0.000 F600.000
G1 X12.679 Y36.475 Z-4.000 F600.000
G3 X20.132 Y34.722 Z-4.000 I5.821 J8.025 K0.000 F600.000
G3 X16.868 Y54.278 Z-4.000 I-1.632 J9.778 K0.000 F600.000
G3 X12.679 Y36.475 Z-4.000 I1.632 J-9.778 K0.000 F600.000
G1 X12.679 Y36.475 Z-5.000 F600.000
G3 X20.132 Y34.722 Z-5.000 I5.821 J8.025 K0.000 F600.000
G3 X16.868 Y54.278 Z-5.000 I-1.632 J9.778 K0.000 F600.000
G3 X12.679 Y36.475 Z-5.000 I1.632 J-9.778 K0.000 F600.000
G1 X12.679 Y36.475 Z-6.000 F600.000
G3 X20.132 Y34.722 Z-6.000 I5.821 J8.025 K0.000 F600.000
G3 X16.868 Y54.278 Z-6.000 I-1.632 J9.778 K0.000 F600.000
G3 X12.679 Y36.475 Z-6.000 I1.632 J-9.778 K0.000 F600.000
G1 X12.679 Y36.475 Z-7.000 F600.000
G3 X20.132 Y34.722 Z-7.000 I5.821 J8.025 K0.000 F600.000
G3 X16.868 Y54.278 Z-7.000 I-1.632 J9.778 K0.000 F600.000
G3 X12.679 Y36.475 Z-7.000 I1.632 J-9.778 K0.000 F600.000
G1 X12.679 Y36.475 Z-8.000 F600.000
G3 X20.132 Y34.722 Z-8.000 I5.821 J8.025 K0.000 F600.000
G3 X16.868 Y54.278 Z-8.000 I-1.632 J9.778 K0.000 F600.000
G3 X12.679 Y36.475 Z-8.000 I1.632 J-9.778 K0.000 F600.000
G0 Z5.000
G0 Z5.000
G0 X12.679 Y36.475
G0 X12.679 Y69.585
G0 X12.679 Y69.585 Z3.000
G1 X12.679 Y69.585 Z-1.000 F600.000
G1 X21.585 Y69.585 Z-1.000 F600.000
G1 X21.585 Y70.415 Z-1.000 F600.000
G1 X11.585 Y70.415 Z-1.000 F600.000
G1 X11.585 Y69.585 Z-1.000 F600.000
G1 X12.679 Y69.585 Z-1.000 F600.000
G1 X12.679 Y69.585 Z-2.000 F600.000
G1 X21.585 Y69.585 Z-2.000 F600.000
G1 X21.585 Y70.415 Z-2.000 F600.000
G1 X11.585 Y70.415 Z-2.000 F600.000
G1 X11.585 Y69.585 Z-2.000 F600.000
G1 X12.679 Y69.585 Z-2.000 F600.000
G1 X12.679 Y69.585 Z-3.000 F600.000
G1 X21.585 Y69.585 Z-3.000 F600.000
G1 X21.585 Y70.415 Z-3.000 F600.000
G1 X11.585 Y70.415 Z-3.000 F600.000
G1 X11.585 Y69.585 Z-3.000 F600.000
G1 X12.679 Y69.585 Z-3.000 F600.000
G1 X12.679 Y69.585 Z-4.000 F600.000
G1 X21.585 Y69.585 Z-4.000 F600.000
G1 X21.585 Y70.415 Z-4.000 F600.000
G1 X11.585 Y70.415 Z-4.000 F600.000
G1 X11.585 Y69.585 Z-4.000 F600.000
G1 X12.679 Y69.585 Z-4.000 F600.000
G1 X12.679 Y69.585 Z-5.000 F600.000
G1 X21.585 Y69.585 Z-5.000 F600.000
G1 X21.585 Y70.415 Z-5.000 F600.000
G1 X11.585 Y70.415 Z-5.000 F600.000
G1 X11.585 Y69.585 Z-5.000 F600.000
G1 X12.679 Y69.585 Z-5.000 F600.000
G1 X12.679 Y69.585 Z-6.000 F600.000
G1 X21.585 Y69.585 Z-6.000 F600.000
G1 X21.585 Y70.415 Z-6.000 F600.000
G1 X11.585 Y70.415 Z-6.000 F600.000
G1 X11.585 Y69.585 Z-6.000 F600.000
G1 X12.679 Y69.585 Z-6.000 F600.000
G1 X12.679 Y69.585 Z-7.000 F600.000
G1 X21.585 Y69.585 Z-7.000 F600.000
G1 X21.585 Y70.415 Z-7.000 F600.000
G1 X11.585 Y70.415 Z-7.000 F600.000
G1 X11.585 Y69.585 Z-7.000 F600.000
G1 X12.679 Y69.585 Z-7.000 F600.000
G1 X12.679 Y69.585 Z-8.000 F600.000
G1 X21.585 Y69.585 Z-8.000 F600.000
G1 X21.585 Y70.415 Z-8.000 F600.000
G1 X11.585 Y70.415 Z-8.000 F600.000
G1 X11.585 Y69.585 Z-8.000 F600.000
G1 X12.679 Y69.585 Z-8.000 F600.000
G0 Z5.000
G0 Z5.000
G0 X12.679 Y69.585
G0 X36.585
G0 X36.585 Z3.000
G1 X36.585 Y69.585 Z-1.000 F600.000
G1 X36.585 Y8.589 Z-1.000 F600.000
G3 X36.589 Y8.585 Z-1.000 I0.002 J-0.002 K0.000 F600.000
G1 X168.411 Y8.585 Z-1.000 F600.000
G3 X168.415 Y8.589 Z-1.000 I0.002 J0.002 K0.000 F600.000
G1 X168.415 Y83.411 Z-1.000 F600.000
G3 X168.411 Y83.415 Z-1.000 I-0.002 J0.002 K0.000 F600.000
G1 X36.589 Y83.415 Z-1.000 F600.000
G3 X36.585 Y83.411 Z-1.000 I-0.002 J-0.002 K0.000 F600.000
G1 X36.585 Y69.585 Z-1.000 F600.000
G1 X36.585 Y69.585 Z-2.000 F600.000
G1 X36.585 Y8.589 Z-2.000 F600.000
G3 X36.589 Y8.585 Z-2.000 I0.002 J-0.002 K0.000 F600.000
G1 X168.411 Y8.585 Z-2.000 F600.000
G3 X168.415 Y8.589 Z-2.000 I0.002 J0.002 K0.000 F600.000
G1 X168.415 Y83.411 Z-2.000 F600.000
G3 X168.411 Y83.415 Z-2.000 I-0.002 J0.002 K0.000 F600.000
G1 X36.589 Y83.415 Z-2.000 F600.000
G3 X36.585 Y83.411 Z-2.000 I-0.002 J-0.002 K0.000 F600.000
G1 X36.585 Y69.585 Z-2.000 F600.000
G1 X36.585 Y69.585 Z-3.000 F600.000
G1 X36.585 Y8.589 Z-3.000 F600.000
G3 X36.589 Y8.585 Z-3.000 I0.002 J-0.002 K0.000 F600.000
G1 X168.411 Y8.585 Z-3.000 F600.000
G3 X168.415 Y8.589 Z-3.000 I0.002 J0.002 K0.000 F600.000
G1 X168.415 Y83.411 Z-3.000 F600.000
G3 X168.411 Y83.415 Z-3.000 I-0.002 J0.002 K0.000 F600.000
G1 X36.589 Y83.415 Z-3.000 F600.000
G3 X36.585 Y83.411 Z-3.000 I-0.002 J-0.002 K0.000 F600.000
G1 X36.585 Y69.585 Z-3.000 F600.000
G1 X36.585 Y69.585 Z-4.000 F600.000
G1 X36.585 Y8.589 Z-4.000 F600.000
G3 X36.589 Y8.585 Z-4.000 I0.002 J-0.002 K0.000 F600.000
G1 X168.411 Y8.585 Z-4.000 F600.000
G3 X168.415 Y8.589 Z-4.000 I0.002 J0.002 K0.000 F600.000
G1 X168.415 Y83.411 Z-4.000 F600.000
G3 X168.411 Y83.415 Z-4.000 I-0.002 J0.002 K0.000 F600.000
G1 X36.589 Y83.415 Z-4.000 F600.000
G3 X36.585 Y83.411 Z-4.000 I-0.002 J-0.002 K0.000 F600.000
G1 X36.585 Y69.585 Z-4.000 F600.000
G1 X36.585 Y69.585 Z-5.000 F600.000
G1 X36.585 Y8.589 Z-5.000 F600.000
G3 X36.589 Y8.585 Z-5.000 I0.002 J-0.002 K0.000 F600.000
G1 X168.411 Y8.585 Z-5.000 F600.000
G3 X168.415 Y8.589 Z-5.000 I0.002 J0.002 K0.000 F600.000
G1 X168.415 Y83.411 Z-5.000 F600.000
G3 X168.411 Y83.415 Z-5.000 I-0.002 J0.002 K0.000 F600.000
G1 X36.589 Y83.415 Z-5.000 F600.000
G3 X36.585 Y83.411 Z-5.000 I-0.002 J-0.002 K0.000 F600.000
G1 X36.585 Y69.585 Z-5.000 F600.000
G1 X36.585 Y69.585 Z-6.000 F600.000
G1 X36.585 Y8.589 Z-6.000 F600.000
G3 X36.589 Y8.585 Z-6.000 I0.002 J-0.002 K0.000 F600.000
G1 X168.411 Y8.585 Z-6.000 F600.000
G3 X168.415 Y8.589 Z-6.000 I0.002 J0.002 K0.000 F600.000
G1 X168.415 Y83.411 Z-6.000 F600.000
G3 X168.411 Y83.415 Z-6.000 I-0.002 J0.002 K0.000 F600.000
G1 X36.589 Y83.415 Z-6.000 F600.000
G3 X36.585 Y83.411 Z-6.000 I-0.002 J-0.002 K0.000 F600.000
G1 X36.585 Y69.585 Z-6.000 F600.000
G1 X36.585 Y69.585 Z-7.000 F600.000
G1 X36.585 Y8.589 Z-7.000 F600.000
G3 X36.589 Y8.585 Z-7.000 I0.002 J-0.002 K0.000 F600.000
G1 X168.411 Y8.585 Z-7.000 F600.000
G3 X168.415 Y8.589 Z-7.000 I0.002 J0.002 K0.000 F600.000
G1 X168.415 Y83.411 Z-7.000 F600.000
G3 X168.411 Y83.415 Z-7.000 I-0.002 J0.002 K0.000 F600.000
G1 X36.589 Y83.415 Z-7.000 F600.000
G3 X36.585 Y83.411 Z-7.000 I-0.002 J-0.002 K0.000 F600.000
G1 X36.585 Y69.585 Z-7.000 F600.000
G1 X36.585 Y69.585 Z-8.000 F600.000
G1 X36.585 Y8.589 Z-8.000 F600.000
G3 X36.589 Y8.585 Z-8.000 I0.002 J-0.002 K0.000 F600.000
G1 X168.411 Y8.585 Z-8.000 F600.000
G3 X168.415 Y8.589 Z-8.000 I0.002 J0.002 K0.000 F600.000
G1 X168.415 Y83.411 Z-8.000 F600.000
G3 X168.411 Y83.415 Z-8.000 I-0.002 J0.002 K0.000 F600.000
G1 X36.589 Y83.415 Z-8.000 F600.000
G3 X36.585 Y83.411 Z-8.000 I-0.002 J-0.002 K0.000 F600.000
G1 X36.585 Y69.585 Z-8.000 F600.000
G0 Z5.000
G0 Z5.000
G0 X36.585 Y69.585
G0 X176.415
G0 X176.415 Z3.000
G1 X176.415 Y69.585 Z-1.000 F600.000
G1 X186.415 Y69.585 Z-1.000 F600.000
G1 X186.415 Y70.415 Z-1.000 F600.000
G1 X176.415 Y70.415 Z-1.000 F600.000
G1 X176.415 Y69.585 Z-1.000 F600.000
G1 X176.415 Y69.585 Z-2.000 F600.000
G1 X186.415 Y69.585 Z-2.000 F600.000
G1 X186.415 Y70.415 Z-2.000 F600.000
G1 X176.415 Y70.415 Z-2.000 F600.000
G1 X176.415 Y69.585 Z-2.000 F600.000
G1 X176.415 Y69.585 Z-3.000 F600.000
G1 X186.415 Y69.585 Z-3.000 F600.000
G1 X186.415 Y70.415 Z-3.000 F600.000
G1 X176.415 Y70.415 Z-3.000 F600.000
G1 X176.415 Y69.585 Z-3.000 F600.000
G1 X176.415 Y69.585 Z-4.000 F600.000
G1 X186.415 Y69.585 Z-4.000 F600.000
G1 X186.415 Y70.415 Z-4.000 F600.000
G1 X176.415 Y70.415 Z-4.000 F600.000
G1 X176.415 Y69.585 Z-4.000 F600.000
G1 X176.415 Y69.585 Z-5.000 F600.000
G1 X186.415 Y69.585 Z-5.000 F600.000
G1 X186.415 Y70.415 Z-5.000 F600.000
G1 X176.415 Y70.415 Z-5.000 F600.000
G1 X176.415 Y69.585 Z-5.000 F600.000
G1 X176.415 Y69.585 Z-6.000 F600.000
G1 X186.415 Y69.585 Z-6.000 F600.000
G1 X186.415 Y70.415 Z-6.000 F600.000
G1 X176.415 Y70.415 Z-6.000 F600.000
G1 X176.415 Y69.585 Z-6.000 F600.000
G1 X176.415 Y69.585 Z-7.000 F600.000
G1 X186.415 Y69.585 Z-7.000 F600.000
G1 X186.415 Y70.415 Z-7.000 F600.000
G1 X176.415 Y70.415 Z-7.000 F600.000
G1 X176.415 Y69.585 Z-7.000 F600.000
G1 X176.415 Y69.585 Z-8.000 F600.000
G1 X186.415 Y69.585 Z-8.000 F600.000
G1 X186.415 Y70.415 Z-8.000 F600.000
G1 X176.415 Y70.415 Z-8.000 F600.000
G1 X176.415 Y69.585 Z-8.000 F600.000
G0 Z5.000
G0 Z5.000
G0 X176.415 Y69.585
G0 X194.584 Y69.585
G0 X194.584 Y69.585 Z3.000
G1 X194.584 Y69.585 Z-1.000 F600.000
G1 X194.585 Y15.000 Z-1.000 F600.000
G2 X178.057 Y-1.584 Z-1.000 I-16.586 J0.002 K0.000 F600.000
G1 X15.000 Y-1.585 Z-1.000 F600.000
G2 X-1.584 Y14.943 Z-1.000 I0.002 J16.586 K0.000 F600.000
G1 X-1.585 Y77.000 Z-1.000 F600.000
G2 X14.943 Y93.584 Z-1.000 I16.586 J-0.002 K0.000 F600.000
G1 X178.000 Y93.585 Z-1.000 F600.000
G2 X194.584 Y77.057 Z-1.000 I-0.002 J-16.586 K0.000 F600.000
G1 X194.584 Y69.585 Z-1.000 F600.000
G1 X194.584 Y69.585 Z-2.000 F600.000
G1 X194.585 Y15.000 Z-2.000 F600.000
G2 X178.057 Y-1.584 Z-2.000 I-16.586 J0.002 K0.000 F600.000
G1 X15.000 Y-1.585 Z-2.000 F600.000
G2 X-1.584 Y14.943 Z-2.000 I0.002 J16.586 K0.000 F600.000
G1 X-1.585 Y77.000 Z-2.000 F600.000
G2 X14.943 Y93.584 Z-2.000 I16.586 J-0.002 K0.000 F600.000
G1 X178.000 Y93.585 Z-2.000 F600.000
G2 X194.584 Y77.057 Z-2.000 I-0.002 J-16.586 K0.000 F600.000
G1 X194.584 Y69.585 Z-2.000 F600.000
G1 X194.584 Y69.585 Z-3.000 F600.000
G1 X194.585 Y15.000 Z-3.000 F600.000
G2 X178.057 Y-1.584 Z-3.000 I-16.586 J0.002 K0.000 F600.000
G1 X15.000 Y-1.585 Z-3.000 F600.000
G2 X-1.584 Y14.943 Z-3.000 I0.002 J16.586 K0.000 F600.000
G1 X-1.585 Y77.000 Z-3.000 F600.000
G2 X14.943 Y93.584 Z-3.000 I16.586 J-0.002 K0.000 F600.000
G1 X178.000 Y93.585 Z-3.000 F600.000
G2 X194.584 Y77.057 Z-3.000 I-0.002 J-16.586 K0.000 F600.000
G1 X194.584 Y69.585 Z-3.000 F600.000
G1 X194.584 Y69.585 Z-4.000 F600.000
G1 X194.585 Y15.000 Z-4.000 F600.000
G2 X178.057 Y-1.584 Z-4.000 I-16.586 J0.002 K0.000 F600.000
G1 X15.000 Y-1.585 Z-4.000 F600.000
G2 X-1.584 Y14.943 Z-4.000 I0.002 J16.586 K0.000 F600.000
G1 X-1.585 Y77.000 Z-4.000 F600.000
G2 X14.943 Y93.584 Z-4.000 I16.586 J-0.002 K0.000 F600.000
G1 X178.000 Y93.585 Z-4.000 F600.000
G2 X194.584 Y77.057 Z-4.000 I-0.002 J-16.586 K0.000 F600.000
G1 X194.584 Y69.585 Z-4.000 F600.000
G1 X194.584 Y69.585 Z-5.000 F600.000
G1 X194.585 Y15.000 Z-5.000 F600.000
G2 X178.057 Y-1.584 Z-5.000 I-16.586 J0.002 K0.000 F600.000
G1 X15.000 Y-1.585 Z-5.000 F600.000
G2 X-1.584 Y14.943 Z-5.000 I0.002 J16.586 K0.000 F600.000
G1 X-1.585 Y77.000 Z-5.000 F600.000
G2 X14.943 Y93.584 Z-5.000 I16.586 J-0.002 K0.000 F600.000
G1 X178.000 Y93.585 Z-5.000 F600.000
G2 X194.584 Y77.057 Z-5.000 I-0.002 J-16.586 K0.000 F600.000
G1 X194.584 Y69.585 Z-5.000 F600.000
G1 X194.584 Y69.585 Z-6.000 F600.000
G1 X194.585 Y15.000 Z-6.000 F600.000
G2 X178.057 Y-1.584 Z-6.000 I-16.586 J0.002 K0.000 F600.000
G1 X15.000 Y-1.585 Z-6.000 F600.000
G2 X-1.584 Y14.943 Z-6.000 I0.002 J16.586 K0.000 F600.000
G1 X-1.585 Y77.000 Z-6.000 F600.000
G2 X14.943 Y93.584 Z-6.000 I16.586 J-0.002 K0.000 F600.000
G1 X178.000 Y93.585 Z-6.000 F600.000
G2 X194.584 Y77.057 Z-6.000 I-0.002 J-16.586 K0.000 F600.000
G1 X194.584 Y69.585 Z-6.000 F600.000
G1 X194.584 Y69.585 Z-7.000 F600.000
G1 X194.585 Y15.000 Z-7.000 F600.000
G2 X178.057 Y-1.584 Z-7.000 I-16.586 J0.002 K0.000 F600.000
G1 X15.000 Y-1.585 Z-7.000 F600.000
G2 X-1.584 Y14.943 Z-7.000 I0.002 J16.586 K0.000 F600.000
G1 X-1.585 Y77.000 Z-7.000 F600.000
G2 X14.943 Y93.584 Z-7.000 I16.586 J-0.002 K0.000 F600.000
G1 X178.000 Y93.585 Z-7.000 F600.000
G2 X194.584 Y77.057 Z-7.000 I-0.002 J-16.586 K0.000 F600.000
G1 X194.584 Y69.585 Z-7.000 F600.000
G1 X194.584 Y69.585 Z-8.000 F600.000
G1 X194.585 Y15.000 Z-8.000 F600.000
G2 X178.057 Y-1.584 Z-8.000 I-16.586 J0.002 K0.000 F600.000
G1 X15.000 Y-1.585 Z-8.000 F600.000
G2 X-1.584 Y14.943 Z-8.000 I0.002 J16.586 K0.000 F600.000
G1 X-1.585 Y77.000 Z-8.000 F600.000
G2 X14.943 Y93.584 Z-8.000 I16.586 J-0.002 K0.000 F600.000
G1 X178.000 Y93.585 Z-8.000 F600.000
G2 X194.584 Y77.057 Z-8.000 I-0.002 J-16.586 K0.000 F600.000
G1 X194.584 Y69.585 Z-8.000 F600.000
G0 Z5.000
G0 Z5.000
G0 X194.584 Y69.585
G0 X186.415 Y22.415
G0 X186.415 Y22.415 Z3.000
G1 X186.415 Y22.415 Z-1.000 F600.000
G1 X176.415 Y22.415 Z-1.000 F600.000
G1 X176.415 Y21.585 Z-1.000 F600.000
G1 X186.415 Y21.585 Z-1.000 F600.000
G1 X186.415 Y22.415 Z-1.000 F600.000
G1 X186.415 Y22.415 Z-2.000 F600.000
G1 X176.415 Y22.415 Z-2.000 F600.000
G1 X176.415 Y21.585 Z-2.000 F600.000
G1 X186.415 Y21.585 Z-2.000 F600.000
G1 X186.415 Y22.415 Z-2.000 F600.000
G1 X186.415 Y22.415 Z-3.000 F600.000
G1 X176.415 Y22.415 Z-3.000 F600.000
G1 X176.415 Y21.585 Z-3.000 F600.000
G1 X186.415 Y21.585 Z-3.000 F600.000
G1 X186.415 Y22.415 Z-3.000 F600.000
G1 X186.415 Y22.415 Z-4.000 F600.000
G1 X176.415 Y22.415 Z-4.000 F600.000
G1 X176.415 Y21.585 Z-4.000 F600.000
G1 X186.415 Y21.585 Z-4.000 F600.000
G1 X186.415 Y22.415 Z-4.000 F600.000
G1 X186.415 Y22.415 Z-5.000 F600.000
G1 X176.415 Y22.415 Z-5.000 F600.000
G1 X176.415 Y21.585 Z-5.000 F600.000
G1 X186.415 Y21.585 Z-5.000 F600.000
G1 X186.415 Y22.415 Z-5.000 F600.000
G1 X186.415 Y22.415 Z-6.000 F600.000
G1 X176.415 Y22.415 Z-6.000 F600.000
G1 X176.415 Y21.585 Z-6.000 F600.000
G1 X186.415 Y21.585 Z-6.000 F600.000
G1 X186.415 Y22.415 Z-6.000 F600.000
G1 X186.415 Y22.415 Z-7.000 F600.000
G1 X176.415 Y22.415 Z-7.000 F600.000
G1 X176.415 Y21.585 Z-7.000 F600.000
G1 X186.415 Y21.585 Z-7.000 F600.000
G1 X186.415 Y22.415 Z-7.000 F600.000
G1 X186.415 Y22.415 Z-8.000 F600.000
G1 X176.415 Y22.415 Z-8.000 F600.000
G1 X176.415 Y21.585 Z-8.000 F600.000
G1 X186.415 Y21.585 Z-8.000 F600.000
G1 X186.415 Y22.415 Z-8.000 F600.000
G0 Z5.000
G0 Z5.000
(Finish operation: Profile006)
(Begin postamble)
M5
G17 G90
M2
