(Exported by FreeCAD)
(Post Processor: grbl_post)
(Output Time:2022-11-05 15:04:02.825183)
(Begin preamble)
G17 G90
G21
(Begin operation: G54)
(Path: G54)
G54
G0 Z5.000
(Finish operation: G54)
(Begin operation: 3_175_endmill003)
(Path: 3_175_endmill003)
(3_175_endmill003)
(Begin toolchange)
( M6 T2 )
(Finish operation: 3_175_endmill003)
(Begin operation: Profile003)
(Path: Profile003)
(Profile003)
(Compensated Tool Path. Diameter: 3.17)
G0 Z5.000
G0 X22.608 Y130.000
G0 Z3.000
G1 X22.608 Y130.000 Z-1.000 F600.000
G1 X15.778 Y130.000 Z-1.000 F600.000
G1 X15.778 Y33.170 Z-1.000 F600.000
G1 X22.608 Y33.170 Z-1.000 F600.000
G1 X22.608 Y130.000 Z-1.000 F600.000
G1 X22.608 Y130.000 Z-2.000 F600.000
G1 X15.778 Y130.000 Z-2.000 F600.000
G1 X15.778 Y33.170 Z-2.000 F600.000
G1 X22.608 Y33.170 Z-2.000 F600.000
G1 X22.608 Y130.000 Z-2.000 F600.000
G1 X22.608 Y130.000 Z-3.000 F600.000
G1 X15.778 Y130.000 Z-3.000 F600.000
G1 X15.778 Y33.170 Z-3.000 F600.000
G1 X22.608 Y33.170 Z-3.000 F600.000
G1 X22.608 Y130.000 Z-3.000 F600.000
G1 X22.608 Y130.000 Z-4.000 F600.000
G1 X15.778 Y130.000 Z-4.000 F600.000
G1 X15.778 Y33.170 Z-4.000 F600.000
G1 X22.608 Y33.170 Z-4.000 F600.000
G1 X22.608 Y130.000 Z-4.000 F600.000
G0 Z5.000
G0 Z5.000
G0 X22.608 Y130.000
G0 X35.820 Y129.983
G0 X35.820 Y129.983 Z3.000
G1 X35.820 Y129.983 Z-1.000 F600.000
G1 X35.820 Y33.153 Z-1.000 F600.000
G1 X42.650 Y33.153 Z-1.000 F600.000
G1 X42.650 Y129.983 Z-1.000 F600.000
G1 X35.820 Y129.983 Z-1.000 F600.000
G1 X35.820 Y129.983 Z-2.000 F600.000
G1 X35.820 Y33.153 Z-2.000 F600.000
G1 X42.650 Y33.153 Z-2.000 F600.000
G1 X42.650 Y129.983 Z-2.000 F600.000
G1 X35.820 Y129.983 Z-2.000 F600.000
G1 X35.820 Y129.983 Z-3.000 F600.000
G1 X35.820 Y33.153 Z-3.000 F600.000
G1 X42.650 Y33.153 Z-3.000 F600.000
G1 X42.650 Y129.983 Z-3.000 F600.000
G1 X35.820 Y129.983 Z-3.000 F600.000
G1 X35.820 Y129.983 Z-4.000 F600.000
G1 X35.820 Y33.153 Z-4.000 F600.000
G1 X42.650 Y33.153 Z-4.000 F600.000
G1 X42.650 Y129.983 Z-4.000 F600.000
G1 X35.820 Y129.983 Z-4.000 F600.000
G0 Z5.000
G0 Z5.000
G0 X35.820 Y129.983
G0 X55.863 Y129.965
G0 X55.863 Y129.965 Z3.000
G1 X55.863 Y129.965 Z-1.000 F600.000
G1 X55.863 Y33.135 Z-1.000 F600.000
G1 X62.693 Y33.135 Z-1.000 F600.000
G1 X62.693 Y129.965 Z-1.000 F600.000
G1 X55.863 Y129.965 Z-1.000 F600.000
G1 X55.863 Y129.965 Z-2.000 F600.000
G1 X55.863 Y33.135 Z-2.000 F600.000
G1 X62.693 Y33.135 Z-2.000 F600.000
G1 X62.693 Y129.965 Z-2.000 F600.000
G1 X55.863 Y129.965 Z-2.000 F600.000
G1 X55.863 Y129.965 Z-3.000 F600.000
G1 X55.863 Y33.135 Z-3.000 F600.000
G1 X62.693 Y33.135 Z-3.000 F600.000
G1 X62.693 Y129.965 Z-3.000 F600.000
G1 X55.863 Y129.965 Z-3.000 F600.000
G1 X55.863 Y129.965 Z-4.000 F600.000
G1 X55.863 Y33.135 Z-4.000 F600.000
G1 X62.693 Y33.135 Z-4.000 F600.000
G1 X62.693 Y129.965 Z-4.000 F600.000
G1 X55.863 Y129.965 Z-4.000 F600.000
G0 Z5.000
G0 Z5.000
G0 X55.863 Y129.965
G0 X75.905 Y129.948
G0 X75.905 Y129.948 Z3.000
G1 X75.905 Y129.948 Z-1.000 F600.000
G1 X75.905 Y33.118 Z-1.000 F600.000
G1 X82.735 Y33.118 Z-1.000 F600.000
G1 X82.735 Y129.948 Z-1.000 F600.000
G1 X75.905 Y129.948 Z-1.000 F600.000
G1 X75.905 Y129.948 Z-2.000 F600.000
G1 X75.905 Y33.118 Z-2.000 F600.000
G1 X82.735 Y33.118 Z-2.000 F600.000
G1 X82.735 Y129.948 Z-2.000 F600.000
G1 X75.905 Y129.948 Z-2.000 F600.000
G1 X75.905 Y129.948 Z-3.000 F600.000
G1 X75.905 Y33.118 Z-3.000 F600.000
G1 X82.735 Y33.118 Z-3.000 F600.000
G1 X82.735 Y129.948 Z-3.000 F600.000
G1 X75.905 Y129.948 Z-3.000 F600.000
G1 X75.905 Y129.948 Z-4.000 F600.000
G1 X75.905 Y33.118 Z-4.000 F600.000
G1 X82.735 Y33.118 Z-4.000 F600.000
G1 X82.735 Y129.948 Z-4.000 F600.000
G1 X75.905 Y129.948 Z-4.000 F600.000
G0 Z5.000
G0 Z5.000
G0 X75.905 Y129.948
G0 X95.948 Y129.931
G0 X95.948 Y129.931 Z3.000
G1 X95.948 Y129.931 Z-1.000 F600.000
G1 X95.948 Y33.101 Z-1.000 F600.000
G1 X102.778 Y33.101 Z-1.000 F600.000
G1 X102.778 Y129.931 Z-1.000 F600.000
G1 X95.948 Y129.931 Z-1.000 F600.000
G1 X95.948 Y129.931 Z-2.000 F600.000
G1 X95.948 Y33.101 Z-2.000 F600.000
G1 X102.778 Y33.101 Z-2.000 F600.000
G1 X102.778 Y129.931 Z-2.000 F600.000
G1 X95.948 Y129.931 Z-2.000 F600.000
G1 X95.948 Y129.931 Z-3.000 F600.000
G1 X95.948 Y33.101 Z-3.000 F600.000
G1 X102.778 Y33.101 Z-3.000 F600.000
G1 X102.778 Y129.931 Z-3.000 F600.000
G1 X95.948 Y129.931 Z-3.000 F600.000
G1 X95.948 Y129.931 Z-4.000 F600.000
G1 X95.948 Y33.101 Z-4.000 F600.000
G1 X102.778 Y33.101 Z-4.000 F600.000
G1 X102.778 Y129.931 Z-4.000 F600.000
G1 X95.948 Y129.931 Z-4.000 F600.000
G0 Z5.000
G0 Z5.000
G0 X95.948 Y129.931
G0 X115.991 Y129.913
G0 X115.991 Y129.913 Z3.000
G1 X115.991 Y129.913 Z-1.000 F600.000
G1 X115.991 Y33.083 Z-1.000 F600.000
G1 X122.821 Y33.083 Z-1.000 F600.000
G1 X122.821 Y129.913 Z-1.000 F600.000
G1 X115.991 Y129.913 Z-1.000 F600.000
G1 X115.991 Y129.913 Z-2.000 F600.000
G1 X115.991 Y33.083 Z-2.000 F600.000
G1 X122.821 Y33.083 Z-2.000 F600.000
G1 X122.821 Y129.913 Z-2.000 F600.000
G1 X115.991 Y129.913 Z-2.000 F600.000
G1 X115.991 Y129.913 Z-3.000 F600.000
G1 X115.991 Y33.083 Z-3.000 F600.000
G1 X122.821 Y33.083 Z-3.000 F600.000
G1 X122.821 Y129.913 Z-3.000 F600.000
G1 X115.991 Y129.913 Z-3.000 F600.000
G1 X115.991 Y129.913 Z-4.000 F600.000
G1 X115.991 Y33.083 Z-4.000 F600.000
G1 X122.821 Y33.083 Z-4.000 F600.000
G1 X122.821 Y129.913 Z-4.000 F600.000
G1 X115.991 Y129.913 Z-4.000 F600.000
G0 Z5.000
G0 Z5.000
G0 X115.991 Y129.913
G0 X136.033 Y129.896
G0 X136.033 Y129.896 Z3.000
G1 X136.033 Y129.896 Z-1.000 F600.000
G1 X136.033 Y33.066 Z-1.000 F600.000
G1 X142.863 Y33.066 Z-1.000 F600.000
G1 X142.863 Y129.896 Z-1.000 F600.000
G1 X136.033 Y129.896 Z-1.000 F600.000
G1 X136.033 Y129.896 Z-2.000 F600.000
G1 X136.033 Y33.066 Z-2.000 F600.000
G1 X142.863 Y33.066 Z-2.000 F600.000
G1 X142.863 Y129.896 Z-2.000 F600.000
G1 X136.033 Y129.896 Z-2.000 F600.000
G1 X136.033 Y129.896 Z-3.000 F600.000
G1 X136.033 Y33.066 Z-3.000 F600.000
G1 X142.863 Y33.066 Z-3.000 F600.000
G1 X142.863 Y129.896 Z-3.000 F600.000
G1 X136.033 Y129.896 Z-3.000 F600.000
G1 X136.033 Y129.896 Z-4.000 F600.000
G1 X136.033 Y33.066 Z-4.000 F600.000
G1 X142.863 Y33.066 Z-4.000 F600.000
G1 X142.863 Y129.896 Z-4.000 F600.000
G1 X136.033 Y129.896 Z-4.000 F600.000
G0 Z5.000
G0 Z5.000
G0 X136.033 Y129.896
G0 X156.076 Y129.879
G0 X156.076 Y129.879 Z3.000
G1 X156.076 Y129.879 Z-1.000 F600.000
G1 X156.076 Y33.049 Z-1.000 F600.000
G1 X162.906 Y33.049 Z-1.000 F600.000
G1 X162.906 Y129.879 Z-1.000 F600.000
G1 X156.076 Y129.879 Z-1.000 F600.000
G1 X156.076 Y129.879 Z-2.000 F600.000
G1 X156.076 Y33.049 Z-2.000 F600.000
G1 X162.906 Y33.049 Z-2.000 F600.000
G1 X162.906 Y129.879 Z-2.000 F600.000
G1 X156.076 Y129.879 Z-2.000 F600.000
G1 X156.076 Y129.879 Z-3.000 F600.000
G1 X156.076 Y33.049 Z-3.000 F600.000
G1 X162.906 Y33.049 Z-3.000 F600.000
G1 X162.906 Y129.879 Z-3.000 F600.000
G1 X156.076 Y129.879 Z-3.000 F600.000
G1 X156.076 Y129.879 Z-4.000 F600.000
G1 X156.076 Y33.049 Z-4.000 F600.000
G1 X162.906 Y33.049 Z-4.000 F600.000
G1 X162.906 Y129.879 Z-4.000 F600.000
G1 X156.076 Y129.879 Z-4.000 F600.000
G0 Z5.000
G0 Z5.000
G0 X156.076 Y129.879
G0 Y136.585
G0 Y136.585 Z3.000
G1 X156.076 Y136.585 Z-1.000 F600.000
G1 X171.830 Y136.585 Z-1.000 F600.000
G1 X171.830 Y149.585 Z-1.000 F600.000
G2 X173.415 Y151.170 Z-1.000 I1.585 J-0.000 K0.000 F600.000
G1 X183.415 Y151.170 Z-1.000 F600.000
G2 X185.000 Y149.585 Z-1.000 I-0.000 J-1.585 K0.000 F600.000
G1 X185.000 Y136.585 Z-1.000 F600.000
G1 X187.000 Y136.585 Z-1.000 F600.000
G2 X188.585 Y135.000 Z-1.000 I-0.000 J-1.585 K0.000 F600.000
G1 X188.585 Y21.585 Z-1.000 F600.000
G2 X187.000 Y20.000 Z-1.000 I-1.585 J0.000 K0.000 F600.000
G1 X185.000 Y20.000 Z-1.000 F600.000
G1 X185.000 Y0.000 Z-1.000 F600.000
G2 X183.415 Y-1.585 Z-1.000 I-1.585 J0.000 K0.000 F600.000
G1 X173.415 Y-1.585 Z-1.000 F600.000
G2 X171.830 Y0.000 Z-1.000 I0.000 J1.585 K0.000 F600.000
G1 X171.830 Y20.000 Z-1.000 F600.000
G1 X20.170 Y20.000 Z-1.000 F600.000
G1 X20.170 Y0.000 Z-1.000 F600.000
G2 X18.585 Y-1.585 Z-1.000 I-1.585 J0.000 K0.000 F600.000
G1 X8.585 Y-1.585 Z-1.000 F600.000
G2 X7.000 Y0.000 Z-1.000 I0.000 J1.585 K0.000 F600.000
G1 X7.000 Y20.000 Z-1.000 F600.000
G1 X0.000 Y20.000 Z-1.000 F600.000
G2 X-1.585 Y21.585 Z-1.000 I0.000 J1.585 K0.000 F600.000
G1 X-1.585 Y135.000 Z-1.000 F600.000
G2 X0.000 Y136.585 Z-1.000 I1.585 J-0.000 K0.000 F600.000
G1 X7.000 Y136.585 Z-1.000 F600.000
G1 X7.000 Y149.585 Z-1.000 F600.000
G2 X8.585 Y151.170 Z-1.000 I1.585 J-0.000 K0.000 F600.000
G1 X18.585 Y151.170 Z-1.000 F600.000
G2 X20.170 Y149.585 Z-1.000 I-0.000 J-1.585 K0.000 F600.000
G1 X20.170 Y136.585 Z-1.000 F600.000
G1 X156.076 Y136.585 Z-1.000 F600.000
G1 X156.076 Y136.585 Z-2.000 F600.000
G1 X171.830 Y136.585 Z-2.000 F600.000
G1 X171.830 Y149.585 Z-2.000 F600.000
G2 X173.415 Y151.170 Z-2.000 I1.585 J-0.000 K0.000 F600.000
G1 X183.415 Y151.170 Z-2.000 F600.000
G2 X185.000 Y149.585 Z-2.000 I-0.000 J-1.585 K0.000 F600.000
G1 X185.000 Y136.585 Z-2.000 F600.000
G1 X187.000 Y136.585 Z-2.000 F600.000
G2 X188.585 Y135.000 Z-2.000 I-0.000 J-1.585 K0.000 F600.000
G1 X188.585 Y21.585 Z-2.000 F600.000
G2 X187.000 Y20.000 Z-2.000 I-1.585 J0.000 K0.000 F600.000
G1 X185.000 Y20.000 Z-2.000 F600.000
G1 X185.000 Y0.000 Z-2.000 F600.000
G2 X183.415 Y-1.585 Z-2.000 I-1.585 J0.000 K0.000 F600.000
G1 X173.415 Y-1.585 Z-2.000 F600.000
G2 X171.830 Y0.000 Z-2.000 I0.000 J1.585 K0.000 F600.000
G1 X171.830 Y20.000 Z-2.000 F600.000
G1 X20.170 Y20.000 Z-2.000 F600.000
G1 X20.170 Y0.000 Z-2.000 F600.000
G2 X18.585 Y-1.585 Z-2.000 I-1.585 J0.000 K0.000 F600.000
G1 X8.585 Y-1.585 Z-2.000 F600.000
G2 X7.000 Y0.000 Z-2.000 I0.000 J1.585 K0.000 F600.000
G1 X7.000 Y20.000 Z-2.000 F600.000
G1 X0.000 Y20.000 Z-2.000 F600.000
G2 X-1.585 Y21.585 Z-2.000 I0.000 J1.585 K0.000 F600.000
G1 X-1.585 Y135.000 Z-2.000 F600.000
G2 X0.000 Y136.585 Z-2.000 I1.585 J-0.000 K0.000 F600.000
G1 X7.000 Y136.585 Z-2.000 F600.000
G1 X7.000 Y149.585 Z-2.000 F600.000
G2 X8.585 Y151.170 Z-2.000 I1.585 J-0.000 K0.000 F600.000
G1 X18.585 Y151.170 Z-2.000 F600.000
G2 X20.170 Y149.585 Z-2.000 I-0.000 J-1.585 K0.000 F600.000
G1 X20.170 Y136.585 Z-2.000 F600.000
G1 X156.076 Y136.585 Z-2.000 F600.000
G1 X156.076 Y136.585 Z-3.000 F600.000
G1 X171.830 Y136.585 Z-3.000 F600.000
G1 X171.830 Y149.585 Z-3.000 F600.000
G2 X173.415 Y151.170 Z-3.000 I1.585 J-0.000 K0.000 F600.000
G1 X183.415 Y151.170 Z-3.000 F600.000
G2 X185.000 Y149.585 Z-3.000 I-0.000 J-1.585 K0.000 F600.000
G1 X185.000 Y136.585 Z-3.000 F600.000
G1 X187.000 Y136.585 Z-3.000 F600.000
G2 X188.585 Y135.000 Z-3.000 I-0.000 J-1.585 K0.000 F600.000
G1 X188.585 Y21.585 Z-3.000 F600.000
G2 X187.000 Y20.000 Z-3.000 I-1.585 J0.000 K0.000 F600.000
G1 X185.000 Y20.000 Z-3.000 F600.000
G1 X185.000 Y0.000 Z-3.000 F600.000
G2 X183.415 Y-1.585 Z-3.000 I-1.585 J0.000 K0.000 F600.000
G1 X173.415 Y-1.585 Z-3.000 F600.000
G2 X171.830 Y0.000 Z-3.000 I0.000 J1.585 K0.000 F600.000
G1 X171.830 Y20.000 Z-3.000 F600.000
G1 X20.170 Y20.000 Z-3.000 F600.000
G1 X20.170 Y0.000 Z-3.000 F600.000
G2 X18.585 Y-1.585 Z-3.000 I-1.585 J0.000 K0.000 F600.000
G1 X8.585 Y-1.585 Z-3.000 F600.000
G2 X7.000 Y0.000 Z-3.000 I0.000 J1.585 K0.000 F600.000
G1 X7.000 Y20.000 Z-3.000 F600.000
G1 X0.000 Y20.000 Z-3.000 F600.000
G2 X-1.585 Y21.585 Z-3.000 I0.000 J1.585 K0.000 F600.000
G1 X-1.585 Y135.000 Z-3.000 F600.000
G2 X0.000 Y136.585 Z-3.000 I1.585 J-0.000 K0.000 F600.000
G1 X7.000 Y136.585 Z-3.000 F600.000
G1 X7.000 Y149.585 Z-3.000 F600.000
G2 X8.585 Y151.170 Z-3.000 I1.585 J-0.000 K0.000 F600.000
G1 X18.585 Y151.170 Z-3.000 F600.000
G2 X20.170 Y149.585 Z-3.000 I-0.000 J-1.585 K0.000 F600.000
G1 X20.170 Y136.585 Z-3.000 F600.000
G1 X156.076 Y136.585 Z-3.000 F600.000
G1 X156.076 Y136.585 Z-4.000 F600.000
G1 X171.830 Y136.585 Z-4.000 F600.000
G1 X171.830 Y149.585 Z-4.000 F600.000
G2 X173.415 Y151.170 Z-4.000 I1.585 J-0.000 K0.000 F600.000
G1 X183.415 Y151.170 Z-4.000 F600.000
G2 X185.000 Y149.585 Z-4.000 I-0.000 J-1.585 K0.000 F600.000
G1 X185.000 Y136.585 Z-4.000 F600.000
G1 X187.000 Y136.585 Z-4.000 F600.000
G2 X188.585 Y135.000 Z-4.000 I-0.000 J-1.585 K0.000 F600.000
G1 X188.585 Y21.585 Z-4.000 F600.000
G2 X187.000 Y20.000 Z-4.000 I-1.585 J0.000 K0.000 F600.000
G1 X185.000 Y20.000 Z-4.000 F600.000
G1 X185.000 Y0.000 Z-4.000 F600.000
G2 X183.415 Y-1.585 Z-4.000 I-1.585 J0.000 K0.000 F600.000
G1 X173.415 Y-1.585 Z-4.000 F600.000
G2 X171.830 Y0.000 Z-4.000 I0.000 J1.585 K0.000 F600.000
G1 X171.830 Y20.000 Z-4.000 F600.000
G1 X20.170 Y20.000 Z-4.000 F600.000
G1 X20.170 Y0.000 Z-4.000 F600.000
G2 X18.585 Y-1.585 Z-4.000 I-1.585 J0.000 K0.000 F600.000
G1 X8.585 Y-1.585 Z-4.000 F600.000
G2 X7.000 Y0.000 Z-4.000 I0.000 J1.585 K0.000 F600.000
G1 X7.000 Y20.000 Z-4.000 F600.000
G1 X0.000 Y20.000 Z-4.000 F600.000
G2 X-1.585 Y21.585 Z-4.000 I0.000 J1.585 K0.000 F600.000
G1 X-1.585 Y135.000 Z-4.000 F600.000
G2 X0.000 Y136.585 Z-4.000 I1.585 J-0.000 K0.000 F600.000
G1 X7.000 Y136.585 Z-4.000 F600.000
G1 X7.000 Y149.585 Z-4.000 F600.000
G2 X8.585 Y151.170 Z-4.000 I1.585 J-0.000 K0.000 F600.000
G1 X18.585 Y151.170 Z-4.000 F600.000
G2 X20.170 Y149.585 Z-4.000 I-0.000 J-1.585 K0.000 F600.000
G1 X20.170 Y136.585 Z-4.000 F600.000
G1 X156.076 Y136.585 Z-4.000 F600.000
G0 Z5.000
G0 Z5.000
(Finish operation: Profile003)
(Begin postamble)
M5
G17 G90
M2
